; generated by Slic3r 1.3.0-dev on 2017-04-26 at 03:11:25

; external perimeters extrusion width = 0.60mm (4.82mm^3/s)
; perimeters extrusion width = 1.01mm (16.96mm^3/s)
; infill extrusion width = 1.01mm (22.62mm^3/s)
; solid infill extrusion width = 1.01mm (5.65mm^3/s)
; top infill extrusion width = 1.01mm (4.24mm^3/s)

M107
M190 S65 ; set bed temperature and wait for it to be reached
M104 S205 ; set temperature
G28 ; home all axes
G1 Z5 F5000 ; lift nozzle

; Filament gcode

M109 S205 ; set temperature and wait for it to be reached
G21 ; set units to millimeters
G90 ; use absolute coordinates
M82 ; use absolute distances for extrusion
G92 E0
G1 Z0.350 F7800.000
G1 E-2.00000 F2400.00000
G92 E0
G1 X84.109 Y84.007 F7800.000
G1 E2.00000 F2400.00000
G1 F300
G1 X84.851 Y83.302 E2.03169
G1 X85.537 Y82.703 E2.05987
G1 X86.654 Y81.829 E2.10375
G1 X87.406 Y81.298 E2.13224
G1 X88.600 Y80.549 E2.17585
G1 X89.418 Y80.091 E2.20484
G1 X90.666 Y79.477 E2.24788
G1 X91.538 Y79.101 E2.27727
G1 X93.279 Y78.477 E2.33449
G1 X94.080 Y78.247 E2.36029
G1 X95.550 Y77.895 E2.40704
G1 X96.354 Y77.753 E2.43231
G1 X97.861 Y77.554 E2.47933
G1 X98.662 Y77.497 E2.50419
G1 X100.215 Y77.453 E2.55224
G1 X101.427 Y77.501 E2.58979
G1 X102.139 Y77.554 E2.61189
G1 X103.200 Y77.684 E2.64495
G1 X104.450 Y77.895 E2.68418
G1 X105.468 Y78.130 E2.71651
G1 X106.721 Y78.477 E2.75673
G1 X107.684 Y78.807 E2.78824
G1 X108.916 Y79.289 E2.82916
G1 X110.293 Y79.942 E2.87632
G1 X111.017 Y80.327 E2.90169
G1 X111.793 Y80.789 E2.92963
G1 X112.594 Y81.298 E2.95899
G1 X113.333 Y81.819 E2.98698
G1 X114.463 Y82.703 E3.03136
G1 X115.145 Y83.299 E3.05939
G1 X115.895 Y84.011 E3.09137
G1 X116.522 Y84.657 E3.11923
G1 X117.457 Y85.734 E3.16337
G1 X118.023 Y86.451 E3.19164
G1 X118.835 Y87.608 E3.23537
G1 X119.333 Y88.398 E3.26425
G1 X120.013 Y89.619 E3.30751
G1 X120.579 Y90.794 E3.34786
G1 X120.977 Y91.736 E3.37952
G1 X121.310 Y92.638 E3.40925
G1 X121.718 Y93.946 E3.45164
G1 X121.958 Y94.884 E3.48159
G1 X122.226 Y96.217 E3.52368
G1 X122.370 Y97.194 E3.55424
G1 X122.498 Y98.531 E3.59578
G1 X122.543 Y99.734 E3.63304
G1 X122.540 Y100.475 E3.65596
G1 X122.505 Y101.378 E3.68392
G1 X122.397 Y102.577 E3.72118
G1 X122.241 Y103.704 E3.75638
G1 X122.015 Y104.860 E3.79283
G1 X121.736 Y105.992 E3.82889
G1 X121.400 Y107.094 E3.86455
G1 X120.997 Y108.216 E3.90143
G1 X120.560 Y109.250 E3.93618
G1 X120.217 Y109.983 E3.96122
G1 X119.502 Y111.312 E4.00791
G1 X119.075 Y112.023 E4.03356
G1 X118.240 Y113.251 E4.07952
G1 X117.722 Y113.941 E4.10621
G1 X116.783 Y115.054 E4.15127
G1 X116.183 Y115.701 E4.17855
G1 X114.839 Y116.976 E4.23588
G1 X114.159 Y117.545 E4.26333
G1 X112.999 Y118.424 E4.30835
G1 X112.272 Y118.912 E4.33546
G1 X111.017 Y119.673 E4.38086
G1 X110.257 Y120.076 E4.40747
G1 X108.916 Y120.711 E4.45339
G1 X108.131 Y121.027 E4.47958
G1 X106.721 Y121.523 E4.52582
G1 X105.920 Y121.753 E4.55161
G1 X104.450 Y122.105 E4.59836
G1 X103.646 Y122.247 E4.62363
G1 X102.139 Y122.446 E4.67066
G1 X101.338 Y122.503 E4.69551
G1 X100.310 Y122.544 E4.72735
G1 X99.104 Y122.526 E4.76466
G1 X97.861 Y122.446 E4.80321
G1 X96.800 Y122.316 E4.83627
G1 X95.550 Y122.105 E4.87551
G1 X94.532 Y121.870 E4.90784
G1 X93.279 Y121.523 E4.94805
G1 X92.425 Y121.232 E4.97597
G1 X91.538 Y120.899 E5.00528
G1 X90.705 Y120.542 E5.03333
G1 X89.418 Y119.909 E5.07771
G1 X88.628 Y119.468 E5.10570
G1 X87.406 Y118.702 E5.15031
G1 X86.667 Y118.181 E5.17831
G1 X85.537 Y117.297 E5.22269
G1 X84.855 Y116.701 E5.25071
G1 X84.105 Y115.990 E5.28270
G1 X83.478 Y115.343 E5.31056
G1 X82.543 Y114.266 E5.35470
G1 X81.977 Y113.549 E5.38297
G1 X81.165 Y112.392 E5.42670
G1 X80.667 Y111.602 E5.45558
G1 X79.987 Y110.381 E5.49884
G1 X79.421 Y109.206 E5.53919
G1 X79.023 Y108.264 E5.57085
G1 X78.690 Y107.362 E5.60058
G1 X78.282 Y106.054 E5.64297
G1 X78.042 Y105.116 E5.67292
G1 X77.774 Y103.783 E5.71501
G1 X77.630 Y102.806 E5.74557
G1 X77.502 Y101.469 E5.78711
G1 X77.457 Y100.266 E5.82437
G1 X77.460 Y99.525 E5.84729
G1 X77.495 Y98.622 E5.87524
G1 X77.603 Y97.423 E5.91251
G1 X77.759 Y96.296 E5.94771
G1 X77.985 Y95.140 E5.98416
G1 X78.264 Y94.008 E6.02022
G1 X78.600 Y92.906 E6.05588
G1 X79.003 Y91.784 E6.09276
G1 X79.440 Y90.750 E6.12750
G1 X79.968 Y89.652 E6.16519
G1 X80.667 Y88.398 E6.20963
G1 X81.152 Y87.627 E6.23779
G1 X81.977 Y86.451 E6.28224
G1 X82.535 Y85.742 E6.31017
G1 X83.478 Y84.657 E6.35465
G1 X84.045 Y84.071 E6.37987
G1 X84.539 Y84.461 F7800.000
G1 F300
G1 X85.282 Y83.755 E6.41156
G1 X85.943 Y83.178 E6.43872
G1 X87.036 Y82.324 E6.48164
G1 X87.760 Y81.813 E6.50907
G1 X88.929 Y81.080 E6.55174
G1 X89.716 Y80.640 E6.57965
G1 X90.938 Y80.040 E6.62179
G1 X91.777 Y79.679 E6.65005
G1 X93.457 Y79.076 E6.70525
G1 X94.232 Y78.853 E6.73021
G1 X95.664 Y78.510 E6.77577
G1 X96.442 Y78.372 E6.80024
G1 X97.910 Y78.177 E6.84604
G1 X98.687 Y78.121 E6.87014
G1 X100.197 Y78.078 E6.91691
G1 X101.395 Y78.125 E6.95400
G1 X102.090 Y78.177 E6.97556
G1 X103.105 Y78.302 E7.00720
G1 X104.336 Y78.510 E7.04583
G1 X105.312 Y78.735 E7.07681
G1 X106.543 Y79.076 E7.11635
G1 X107.966 Y79.578 E7.16303
G1 X108.677 Y79.867 E7.18676
G1 X110.018 Y80.503 E7.23270
G1 X110.719 Y80.876 E7.25727
G1 X112.240 Y81.813 E7.31253
G1 X112.953 Y82.315 E7.33951
G1 X114.057 Y83.178 E7.38289
G1 X114.715 Y83.752 E7.40990
G1 X115.464 Y84.463 E7.44186
G1 X116.069 Y85.087 E7.46873
G1 X116.983 Y86.140 E7.51188
G1 X117.527 Y86.832 E7.53912
G1 X118.321 Y87.964 E7.58189
G1 X118.800 Y88.724 E7.60969
G1 X119.466 Y89.920 E7.65204
G1 X120.003 Y91.037 E7.69040
G1 X120.401 Y91.979 E7.72206
G1 X120.721 Y92.846 E7.75065
G1 X121.120 Y94.128 E7.79220
G1 X121.350 Y95.030 E7.82098
G1 X121.613 Y96.337 E7.86224
G1 X121.751 Y97.276 E7.89159
G1 X121.875 Y98.587 E7.93235
G1 X121.918 Y99.734 E7.96787
G1 X121.915 Y100.458 E7.99027
G1 X121.883 Y101.328 E8.01722
G1 X121.775 Y102.514 E8.05405
G1 X121.627 Y103.590 E8.08767
G1 X121.403 Y104.734 E8.12374
G1 X121.137 Y105.814 E8.15814
G1 X120.804 Y106.907 E8.19349
G1 X120.420 Y107.977 E8.22866
G1 X119.986 Y109.004 E8.26316
G1 X119.653 Y109.714 E8.28743
G1 X118.956 Y111.009 E8.33294
G1 X118.542 Y111.697 E8.35777
G1 X117.727 Y112.894 E8.40259
G1 X117.226 Y113.560 E8.42838
G1 X116.309 Y114.647 E8.47238
G1 X115.730 Y115.271 E8.49871
G1 X114.434 Y116.501 E8.55400
G1 X113.777 Y117.050 E8.58048
G1 X112.645 Y117.909 E8.62446
G1 X111.943 Y118.381 E8.65062
G1 X110.719 Y119.124 E8.69493
G1 X109.985 Y119.513 E8.72065
G1 X108.677 Y120.133 E8.76544
G1 X107.918 Y120.440 E8.79076
G1 X106.543 Y120.924 E8.83585
G1 X105.768 Y121.147 E8.86081
G1 X104.336 Y121.490 E8.90637
G1 X103.558 Y121.628 E8.93083
G1 X102.090 Y121.823 E8.97664
G1 X101.313 Y121.879 E9.00074
G1 X100.285 Y121.919 E9.03257
G1 X99.136 Y121.902 E9.06814
G1 X97.910 Y121.823 E9.10615
G1 X96.895 Y121.698 E9.13779
G1 X95.664 Y121.490 E9.17643
G1 X94.688 Y121.265 E9.20740
G1 X93.457 Y120.924 E9.24695
G1 X92.633 Y120.643 E9.27386
G1 X91.777 Y120.321 E9.30215
G1 X90.974 Y119.978 E9.32918
G1 X89.716 Y119.360 E9.37256
G1 X88.954 Y118.935 E9.39954
G1 X87.760 Y118.187 E9.44313
G1 X87.047 Y117.685 E9.47011
G1 X85.943 Y116.822 E9.51349
G1 X85.285 Y116.248 E9.54051
G1 X84.536 Y115.537 E9.57246
G1 X83.931 Y114.913 E9.59933
G1 X83.017 Y113.860 E9.64248
G1 X82.473 Y113.168 E9.66972
G1 X81.679 Y112.036 E9.71249
G1 X81.200 Y111.276 E9.74030
G1 X80.534 Y110.080 E9.78264
G1 X79.997 Y108.963 E9.82100
G1 X79.599 Y108.021 E9.85266
G1 X79.279 Y107.154 E9.88125
G1 X78.880 Y105.872 E9.92280
G1 X78.650 Y104.970 E9.95158
G1 X78.387 Y103.663 E9.99284
G1 X78.249 Y102.724 E10.02219
G1 X78.125 Y101.413 E10.06295
G1 X78.082 Y100.266 E10.09847
G1 X78.085 Y99.542 E10.12088
G1 X78.117 Y98.672 E10.14782
G1 X78.225 Y97.486 E10.18465
G1 X78.373 Y96.410 E10.21827
G1 X78.597 Y95.266 E10.25434
G1 X78.863 Y94.186 E10.28875
G1 X79.196 Y93.093 E10.32410
G1 X79.580 Y92.023 E10.35926
G1 X80.014 Y90.996 E10.39377
G1 X80.518 Y89.951 E10.42967
G1 X81.200 Y88.724 E10.47311
G1 X81.667 Y87.981 E10.50025
G1 X82.473 Y86.832 E10.54368
G1 X83.011 Y86.148 E10.57060
G1 X83.691 Y85.353 E10.60298
G1 X84.475 Y84.524 E10.63828
G1 X84.969 Y84.914 F7800.000
G1 F300
G1 X85.712 Y84.209 E10.66997
G1 X86.348 Y83.653 E10.69611
G1 X87.417 Y82.819 E10.73807
G1 X88.114 Y82.328 E10.76445
G1 X89.257 Y81.612 E10.80617
G1 X90.014 Y81.189 E10.83299
G1 X91.211 Y80.602 E10.87424
G1 X92.017 Y80.256 E10.90138
G1 X93.634 Y79.675 E10.95455
G1 X94.384 Y79.460 E10.97868
G1 X95.778 Y79.124 E11.02305
G1 X96.531 Y78.990 E11.04671
G1 X97.959 Y78.800 E11.09130
G1 X98.711 Y78.746 E11.11463
G1 X100.180 Y78.703 E11.16011
G1 X101.364 Y78.749 E11.19675
G1 X102.041 Y78.800 E11.21777
G1 X103.010 Y78.920 E11.24799
G1 X104.222 Y79.124 E11.28602
G1 X105.155 Y79.340 E11.31565
G1 X106.366 Y79.675 E11.35452
G1 X107.749 Y80.164 E11.39991
G1 X108.437 Y80.444 E11.42290
G1 X109.743 Y81.064 E11.46761
G1 X110.421 Y81.425 E11.49139
G1 X111.886 Y82.328 E11.54462
G1 X112.572 Y82.810 E11.57059
G1 X113.652 Y83.653 E11.61296
G1 X114.285 Y84.206 E11.63897
G1 X115.034 Y84.916 E11.67090
G1 X115.615 Y85.517 E11.69677
G1 X116.508 Y86.546 E11.73894
G1 X117.031 Y87.213 E11.76515
G1 X117.807 Y88.319 E11.80696
G1 X118.267 Y89.050 E11.83368
G1 X118.918 Y90.220 E11.87512
G1 X119.428 Y91.280 E11.91149
G1 X119.825 Y92.222 E11.94315
G1 X120.132 Y93.054 E11.97059
G1 X120.522 Y94.311 E12.01129
G1 X120.743 Y95.176 E12.03891
G1 X121.000 Y96.457 E12.07934
G1 X121.131 Y97.357 E12.10748
G1 X121.253 Y98.643 E12.14747
G1 X121.293 Y99.734 E12.18124
G1 X121.291 Y100.442 E12.20313
G1 X121.260 Y101.279 E12.22907
G1 X121.153 Y102.451 E12.26546
G1 X121.012 Y103.477 E12.29750
G1 X120.791 Y104.609 E12.33319
G1 X120.538 Y105.637 E12.36595
G1 X120.207 Y106.720 E12.40099
G1 X119.842 Y107.737 E12.43444
G1 X119.412 Y108.758 E12.46870
G1 X119.089 Y109.445 E12.49219
G1 X118.409 Y110.706 E12.53651
G1 X118.009 Y111.370 E12.56052
G1 X117.214 Y112.537 E12.60421
G1 X116.730 Y113.180 E12.62909
G1 X115.835 Y114.240 E12.67204
G1 X115.276 Y114.841 E12.69741
G1 X114.028 Y116.026 E12.75067
G1 X113.395 Y116.555 E12.77619
G1 X112.291 Y117.394 E12.81911
G1 X111.615 Y117.849 E12.84432
G1 X110.421 Y118.575 E12.88755
G1 X109.713 Y118.951 E12.91237
G1 X108.437 Y119.556 E12.95604
G1 X107.705 Y119.852 E12.98049
G1 X106.366 Y120.325 E13.02442
G1 X105.616 Y120.540 E13.04855
G1 X104.222 Y120.876 E13.09292
G1 X103.469 Y121.010 E13.11658
G1 X102.041 Y121.200 E13.16117
G1 X101.289 Y121.254 E13.18450
G1 X100.261 Y121.295 E13.21634
G1 X99.167 Y121.278 E13.25017
G1 X97.959 Y121.200 E13.28764
G1 X96.990 Y121.080 E13.31786
G1 X95.778 Y120.876 E13.35589
G1 X94.845 Y120.660 E13.38551
G1 X93.634 Y120.325 E13.42439
G1 X92.842 Y120.054 E13.45030
G1 X92.017 Y119.744 E13.47757
G1 X91.243 Y119.414 E13.50358
G1 X90.014 Y118.811 E13.54595
G1 X89.280 Y118.402 E13.57193
G1 X88.114 Y117.673 E13.61450
G1 X87.428 Y117.190 E13.64046
G1 X86.348 Y116.347 E13.68284
G1 X85.715 Y115.794 E13.70885
G1 X84.966 Y115.084 E13.74078
G1 X84.385 Y114.483 E13.76664
G1 X83.492 Y113.454 E13.80882
G1 X82.969 Y112.787 E13.83503
G1 X82.193 Y111.681 E13.87684
G1 X81.733 Y110.950 E13.90356
G1 X81.082 Y109.780 E13.94500
G1 X80.572 Y108.720 E13.98136
G1 X80.175 Y107.778 E14.01302
G1 X79.868 Y106.946 E14.04046
G1 X79.478 Y105.689 E14.08117
G1 X79.257 Y104.824 E14.10879
G1 X79.000 Y103.543 E14.14922
G1 X78.869 Y102.643 E14.17736
G1 X78.747 Y101.357 E14.21734
G1 X78.707 Y100.266 E14.25111
G1 X78.709 Y99.558 E14.27301
G1 X78.740 Y98.721 E14.29894
G1 X78.847 Y97.549 E14.33533
G1 X78.988 Y96.523 E14.36738
G1 X79.209 Y95.391 E14.40307
G1 X79.462 Y94.363 E14.43582
G1 X79.793 Y93.280 E14.47086
G1 X80.158 Y92.263 E14.50432
G1 X80.588 Y91.243 E14.53857
G1 X81.067 Y90.249 E14.57270
G1 X81.591 Y89.294 E14.60639
G1 X82.182 Y88.335 E14.64125
G1 X82.969 Y87.213 E14.68367
G1 X83.486 Y86.554 E14.70959
G1 X84.165 Y85.760 E14.74191
G1 X84.906 Y84.977 E14.77524
G1 E12.77524 F2400.00000
G92 E0
G1 X107.874 Y108.384 F7800.000
G1 E2.00000 F2400.00000
G1 F300
G1 X106.754 Y109.309 E2.04494
G1 X105.546 Y110.076 E2.08923
G1 X104.233 Y110.694 E2.13413
G1 X102.871 Y111.138 E2.17844
G1 X101.458 Y111.408 E2.22298
G1 X99.985 Y111.502 E2.26864
G1 X98.542 Y111.408 E2.31338
G1 X97.143 Y111.141 E2.35743
G1 X95.768 Y110.694 E2.40218
G1 X94.467 Y110.083 E2.44664
G1 X93.246 Y109.309 E2.49140
G1 X92.115 Y108.373 E2.53681
G1 X91.137 Y107.329 E2.58106
G1 X90.291 Y106.166 E2.62556
G1 X89.595 Y104.901 E2.67023
G1 X89.065 Y103.563 E2.71478
G1 X88.702 Y102.151 E2.75990
G1 X88.521 Y100.722 E2.80446
G1 X88.521 Y99.278 E2.84913
G1 X88.704 Y97.835 E2.89412
G1 X89.060 Y96.451 E2.93834
G1 X89.595 Y95.100 E2.98331
G1 X90.283 Y93.847 E3.02755
G1 X91.137 Y92.670 E3.07254
G1 X92.137 Y91.606 E3.11771
G1 X93.246 Y90.691 E3.16219
G1 X94.454 Y89.924 E3.20647
G1 X95.767 Y89.306 E3.25137
G1 X97.130 Y88.862 E3.29574
G1 X98.573 Y88.590 E3.34115
G1 X100.015 Y88.499 E3.38588
G1 X101.458 Y88.592 E3.43061
G1 X102.857 Y88.859 E3.47467
G1 X104.232 Y89.306 E3.51941
G1 X105.533 Y89.917 E3.56387
G1 X106.754 Y90.691 E3.60863
G1 X107.885 Y91.627 E3.65404
G1 X108.863 Y92.671 E3.69829
G1 X109.709 Y93.834 E3.74280
G1 X110.405 Y95.099 E3.78747
G1 X110.935 Y96.437 E3.83202
G1 X111.298 Y97.849 E3.87713
G1 X111.479 Y99.278 E3.92168
G1 X111.479 Y100.707 E3.96590
G1 X111.296 Y102.164 E4.01133
G1 X110.940 Y103.549 E4.05556
G1 X110.411 Y104.887 E4.10009
G1 X109.709 Y106.166 E4.14522
G1 X108.863 Y107.330 E4.18976
G1 X107.936 Y108.318 E4.23169
G1 X107.446 Y107.927 F7800.000
G1 F300
G1 X106.386 Y108.802 E4.27420
G1 X105.244 Y109.528 E4.31605
G1 X104.002 Y110.111 E4.35853
G1 X102.715 Y110.531 E4.40041
G1 X101.379 Y110.787 E4.44251
G1 X99.985 Y110.875 E4.48572
G1 X98.621 Y110.787 E4.52802
G1 X97.299 Y110.535 E4.56966
G1 X95.998 Y110.112 E4.61198
G1 X94.769 Y109.535 E4.65401
G1 X93.614 Y108.802 E4.69633
G1 X92.544 Y107.917 E4.73929
G1 X91.620 Y106.930 E4.78111
G1 X90.820 Y105.831 E4.82320
G1 X90.162 Y104.634 E4.86544
G1 X89.660 Y103.369 E4.90756
G1 X89.317 Y102.033 E4.95023
G1 X89.146 Y100.682 E4.99236
G1 X89.146 Y99.317 E5.03459
G1 X89.319 Y97.953 E5.07715
G1 X89.655 Y96.645 E5.11894
G1 X90.162 Y95.366 E5.16148
G1 X90.812 Y94.182 E5.20329
G1 X91.620 Y93.069 E5.24584
G1 X92.565 Y92.063 E5.28856
G1 X93.614 Y91.198 E5.33062
G1 X94.756 Y90.472 E5.37247
G1 X95.998 Y89.889 E5.41494
G1 X97.286 Y89.468 E5.45687
G1 X98.651 Y89.211 E5.49983
G1 X100.015 Y89.125 E5.54213
G1 X101.379 Y89.213 E5.58443
G1 X102.701 Y89.465 E5.62607
G1 X104.002 Y89.888 E5.66839
G1 X105.231 Y90.465 E5.71042
G1 X106.386 Y91.198 E5.75274
G1 X107.456 Y92.083 E5.79570
G1 X108.380 Y93.070 E5.83752
G1 X109.180 Y94.169 E5.87961
G1 X109.838 Y95.366 E5.92185
G1 X110.340 Y96.631 E5.96397
G1 X110.683 Y97.967 E6.00664
G1 X110.854 Y99.317 E6.04876
G1 X110.854 Y100.668 E6.09055
G1 X110.681 Y102.047 E6.13354
G1 X110.345 Y103.355 E6.17534
G1 X109.844 Y104.621 E6.21745
G1 X109.181 Y105.830 E6.26014
G1 X108.380 Y106.931 E6.30224
G1 X107.507 Y107.862 E6.34173
G1 X107.017 Y107.471 F7800.000
G1 F300
G1 X106.018 Y108.295 E6.38181
G1 X104.943 Y108.979 E6.42124
G1 X103.772 Y109.529 E6.46128
G1 X102.559 Y109.925 E6.50074
G1 X101.300 Y110.166 E6.54040
G1 X99.986 Y110.249 E6.58115
G1 X98.700 Y110.166 E6.62102
G1 X97.455 Y109.929 E6.66024
G1 X96.229 Y109.529 E6.70013
G1 X95.070 Y108.986 E6.73974
G1 X93.982 Y108.295 E6.77961
G1 X92.973 Y107.461 E6.82013
G1 X92.102 Y106.532 E6.85952
G1 X91.348 Y105.495 E6.89919
G1 X90.728 Y104.367 E6.93900
G1 X90.255 Y103.175 E6.97868
G1 X89.932 Y101.916 E7.01891
G1 X89.771 Y100.643 E7.05861
G1 X89.771 Y99.357 E7.09840
G1 X89.934 Y98.070 E7.13853
G1 X90.251 Y96.838 E7.17789
G1 X90.728 Y95.633 E7.21801
G1 X91.341 Y94.517 E7.25738
G1 X92.102 Y93.468 E7.29749
G1 X92.994 Y92.520 E7.33776
G1 X93.982 Y91.705 E7.37740
G1 X95.057 Y91.021 E7.41683
G1 X96.228 Y90.471 E7.45687
G1 X97.441 Y90.075 E7.49635
G1 X98.728 Y89.832 E7.53687
G1 X100.014 Y89.751 E7.57674
G1 X101.300 Y89.834 E7.61661
G1 X102.545 Y90.071 E7.65583
G1 X103.771 Y90.471 E7.69572
G1 X104.930 Y91.014 E7.73533
G1 X106.018 Y91.705 E7.77520
G1 X107.027 Y92.539 E7.81572
G1 X107.898 Y93.468 E7.85511
G1 X108.652 Y94.505 E7.89478
G1 X109.272 Y95.633 E7.93458
G1 X109.745 Y96.825 E7.97427
G1 X110.068 Y98.084 E8.01450
