; generated by Slic3r 1.3.0-dev on 2017-04-26 at 01:08:06

; external perimeters extrusion width = 1.00mm (8.42mm^3/s)
; perimeters extrusion width = 1.70mm (29.44mm^3/s)
; infill extrusion width = 2.68mm (62.83mm^3/s)
; solid infill extrusion width = 1.70mm (9.81mm^3/s)
; top infill extrusion width = 1.70mm (7.36mm^3/s)

M107
M190 S65 ; set bed temperature and wait for it to be reached
M104 S205 ; set temperature
G28 ; home all axes
G1 Z5 F5000 ; lift nozzle

; Filament gcode

M109 S205 ; set temperature and wait for it to be reached
G21 ; set units to millimeters
G90 ; use absolute coordinates
M82 ; use absolute distances for extrusion
G92 E0
G1 Z0.350 F7800.000
G1 E-2.00000 F2400.00000
G92 E0
G1 X85.383 Y84.572 F7800.000
G1 E2.00000 F2400.00000
G1 F1200
G1 X86.807 Y83.337 E2.05833
G1 X90.323 Y81.078 E2.18763
G1 X92.038 Y80.294 E2.24598
G1 X96.044 Y79.118 E2.37516
G1 X97.910 Y78.850 E2.43350
G1 X102.090 Y78.850 E2.56281
G1 X103.956 Y79.118 E2.62115
G1 X107.962 Y80.294 E2.75033
G1 X109.677 Y81.078 E2.80869
G1 X113.193 Y83.337 E2.93798
G1 X114.617 Y84.572 E2.99631
G1 X117.352 Y87.728 E3.12552
G1 X118.372 Y89.314 E3.18388
G1 X120.107 Y93.115 E3.31315
G1 X120.638 Y94.923 E3.37146
G1 X121.232 Y99.057 E3.50069
G1 X121.232 Y100.943 E3.55904
G1 X120.638 Y105.077 E3.68826
G1 X120.107 Y106.885 E3.74657
G1 X118.372 Y110.686 E3.87586
G1 X117.352 Y112.273 E3.93421
G1 X114.617 Y115.428 E4.06341
G1 X113.193 Y116.663 E4.12174
G1 X109.677 Y118.922 E4.25104
G1 X107.962 Y119.706 E4.30939
G1 X103.956 Y120.882 E4.43857
G1 X102.090 Y121.150 E4.49691
G1 X97.910 Y121.150 E4.62622
G1 X96.044 Y120.882 E4.68456
G1 X92.038 Y119.706 E4.81374
G1 X90.323 Y118.922 E4.87210
G1 X86.807 Y116.663 E5.00139
G1 X85.383 Y115.428 E5.05972
G1 X82.648 Y112.272 E5.18893
G1 X81.628 Y110.686 E5.24729
G1 X79.893 Y106.885 E5.37656
G1 X79.362 Y105.077 E5.43487
G1 X78.768 Y100.943 E5.56410
G1 X78.768 Y99.057 E5.62245
G1 X79.362 Y94.923 E5.75167
G1 X79.893 Y93.115 E5.80998
G1 X81.628 Y89.314 E5.93927
G1 X82.648 Y87.727 E5.99762
G1 X85.284 Y84.685 E6.12218
G1 E4.12218 F2400.00000
G92 E0
G1 X108.813 Y107.421 F7800.000
G1 E2.00000 F2400.00000
G1 F1200
G1 X105.773 Y109.973 E2.12282
G1 X102.008 Y111.346 E2.24683
G1 X97.994 Y111.346 E2.37103
G1 X94.345 Y110.021 E2.49115
G1 X94.050 Y109.825 E2.50211
G1 X91.186 Y107.421 E2.61779
G1 X89.175 Y103.948 E2.74196
G1 X88.476 Y100.000 E2.86602
G1 X89.175 Y96.052 E2.99008
G1 X91.187 Y92.579 E3.11426
G1 X94.229 Y90.026 E3.23715
G1 X98.032 Y88.650 E3.36228
G1 X102.007 Y88.654 E3.48529
G1 X105.738 Y90.009 E3.60808
G1 X108.813 Y92.577 E3.73206
G1 X110.825 Y96.052 E3.85630
G1 X111.524 Y100.000 E3.98035
G1 X110.825 Y103.948 E4.10441
G1 X108.889 Y107.291 E4.22395
G1 X108.328 Y107.013 F7800.000
G1 F1200
G1 X105.455 Y109.423 E4.33998
G1 X101.897 Y110.722 E4.45716
G1 X98.104 Y110.722 E4.57454
G1 X94.629 Y109.460 E4.68892
G1 X94.426 Y109.324 E4.69648
G1 X91.672 Y107.013 E4.80771
G1 X89.771 Y103.730 E4.92508
G1 X89.111 Y100.000 E5.04230
G1 X89.771 Y96.270 E5.15952
G1 X91.672 Y92.987 E5.27688
G1 X94.546 Y90.576 E5.39295
G1 X98.141 Y89.275 E5.51126
G1 X101.897 Y89.279 E5.62747
G1 X105.421 Y90.558 E5.74348
G1 X108.327 Y92.986 E5.86064
G1 X110.229 Y96.270 E5.97804
G1 X110.889 Y100.000 E6.09526
G1 X110.229 Y103.730 E6.21248
G1 X108.403 Y106.883 E6.32521
G1 X107.842 Y106.605 F7800.000
G1 F1200
G1 X105.138 Y108.874 E6.43444
G1 X101.787 Y110.097 E6.54481
G1 X98.213 Y110.097 E6.65537
G1 X94.913 Y108.898 E6.76401
G1 X94.801 Y108.823 E6.76817
G1 X92.158 Y106.605 E6.87495
G1 X90.367 Y103.513 E6.98551
G1 X89.746 Y100.000 E7.09589
G1 X90.367 Y96.487 E7.20627
G1 X92.158 Y93.395 E7.31682
G1 X94.863 Y91.126 E7.42607
G1 X98.250 Y89.900 E7.53754
G1 X101.787 Y89.903 E7.64696
G1 X105.105 Y91.108 E7.75618
G1 X107.842 Y93.395 E7.86654
G1 X109.633 Y96.487 E7.97710
G1 X110.254 Y100.000 E8.08748
G1 X109.633 Y103.513 E8.19786
G1 X107.917 Y106.475 E8.30378
G1 X107.842 Y106.605 F7800.000
G1 E6.30378 F2400.00000
G92 E0
G1 X109.863 Y108.356 F7800.000
G1 E2.00000 F2400.00000
G1 F1200
G1 X108.552 Y109.868 E2.06192
G1 X105.424 Y111.879 E2.17698
G1 X101.860 Y112.925 E2.29193
G1 X98.140 Y112.925 E2.40700
G1 X94.576 Y111.879 E2.52194
G1 X91.448 Y109.868 E2.63701
G1 X89.014 Y107.060 E2.75197
G1 X87.470 Y103.678 E2.86701
G1 X86.941 Y100.000 E2.98199
G1 X87.470 Y96.322 E3.09697
G1 X89.014 Y92.940 E3.21201
G1 X91.448 Y90.132 E3.32697
G1 X94.576 Y88.121 E3.44204
G1 X98.140 Y87.075 E3.55698
G1 X101.860 Y87.075 E3.67205
G1 X104.211 Y87.765 E3.74787
G1 X105.424 Y88.121 E3.78699
G1 X108.552 Y90.132 E3.90206
G1 X110.986 Y92.940 E4.01702
G1 X112.530 Y96.322 E4.13206
G1 X113.059 Y100.000 E4.24704
G1 X112.530 Y103.678 E4.36202
G1 X110.986 Y107.060 E4.47706
G1 X109.961 Y108.243 E4.52546
G1 X110.335 Y108.765 F7800.000
G1 F1200
G1 X108.966 Y110.345 E4.59016
G1 X105.686 Y112.453 E4.71079
G1 X101.949 Y113.550 E4.83129
G1 X98.051 Y113.550 E4.95192
G1 X94.314 Y112.453 E5.07242
G1 X91.034 Y110.345 E5.19305
G1 X88.483 Y107.402 E5.31357
G1 X86.865 Y103.856 E5.43417
G1 X86.310 Y100.000 E5.55471
G1 X86.865 Y96.144 E5.67525
G1 X88.483 Y92.598 E5.79585
G1 X91.034 Y89.655 E5.91637
G1 X94.314 Y87.547 E6.03700
G1 X98.051 Y86.450 E6.15750
G1 X101.949 Y86.450 E6.27813
G1 X104.387 Y87.165 E6.35673
G1 X105.686 Y87.547 E6.39863
G1 X108.966 Y89.655 E6.51926
G1 X111.517 Y92.598 E6.63978
G1 X113.135 Y96.144 E6.76038
G1 X113.690 Y100.000 E6.88092
G1 X113.135 Y103.856 E7.00146
G1 X111.517 Y107.402 E7.12206
G1 X110.433 Y108.652 E7.17324
G1 X110.807 Y109.174 F7800.000
G1 F1200
G1 X109.379 Y110.822 E7.24072
G1 X105.948 Y113.027 E7.36690
G1 X102.039 Y114.175 E7.49296
G1 X97.961 Y114.175 E7.61916
G1 X94.052 Y113.027 E7.74522
G1 X90.621 Y110.822 E7.87141
G1 X87.952 Y107.743 E7.99749
G1 X86.259 Y104.034 E8.12365
G1 X85.679 Y100.000 E8.24975
G1 X86.259 Y95.966 E8.37585
G1 X87.952 Y92.257 E8.50200
G1 X90.621 Y89.178 E8.62809
G1 X94.052 Y86.973 E8.75427
G1 X97.961 Y85.825 E8.88033
G1 X102.039 Y85.825 E9.00653
G1 X104.563 Y86.566 E9.08791
G1 X105.948 Y86.973 E9.13259
G1 X109.379 Y89.178 E9.25878
G1 X112.048 Y92.257 E9.38486
G1 X113.741 Y95.966 E9.51101
G1 X114.321 Y100.000 E9.63712
G1 X113.741 Y104.034 E9.76322
G1 X112.048 Y107.743 E9.88937
G1 X110.906 Y109.061 E9.94334
G1 X109.815 Y109.049 F7800.000
G1 E7.94334 F2400.00000
G92 E0
G1 X107.895 Y109.634 F7800.000
G1 E2.00000 F2400.00000
G1 F1200
G1 X108.383 Y109.147 E2.02559
G1 X110.697 Y106.476 E2.15682
G1 X111.289 Y105.180 E2.20970
G1 X109.963 Y106.506 E2.27932
G1 X111.178 Y104.409 E2.36932
G1 X111.216 Y104.193 E2.37747
G1 X112.162 Y103.247 E2.42712
G1 E0.42712 F2400.00000
G92 E0
G1 X110.449 Y106.020 F7800.000
G1 E2.00000 F2400.00000
G1 F1200
G1 X109.542 Y107.586 E2.06719
G1 X106.333 Y110.279 E2.22273
G1 X106.109 Y110.361 E2.23161
G1 X104.927 Y111.542 E2.29364
G1 E0.29364 F2400.00000
G92 E0
G1 X111.837 Y102.844 F7800.000
G1 E2.00000 F2400.00000
G1 F1200
G1 X112.059 Y101.461 E2.06194
G1 F1200
G1 X112.281 Y100.078 E2.11899
G1 X112.281 Y99.922 E2.12532
G1 F1200
G1 X111.837 Y97.156 E2.24918
G1 X111.682 Y96.752 F7800.000
G1 F1200
G1 X112.168 Y96.266 E2.27067
G1 X111.891 Y95.651 E2.29175
G1 X111.221 Y96.321 E2.32135
G1 X111.178 Y96.077 E2.32908
G1 X110.956 Y95.694 E2.34294
G1 X111.611 Y95.039 E2.37189
G1 X111.331 Y94.426 E2.39294
G1 X110.628 Y95.128 E2.42400
G1 X110.301 Y94.563 E2.44441
G1 X111.051 Y93.813 E2.47757
G1 X110.771 Y93.200 E2.49863
G1 X109.974 Y93.998 E2.53389
G1 X109.646 Y93.433 E2.55430
G1 X110.393 Y92.686 E2.58730
G1 X109.978 Y92.208 E2.60707
G1 X109.319 Y92.867 E2.63622
G1 X109.055 Y92.412 E2.65268
G1 X108.961 Y92.333 E2.65651
G1 X109.564 Y91.730 E2.68317
G1 X109.149 Y91.252 E2.70295
G1 X108.474 Y91.927 E2.73279
G1 X107.988 Y91.520 E2.75259
G1 X108.735 Y90.773 E2.78561
G1 X108.382 Y90.366 E2.80247
G1 X108.302 Y90.314 E2.80545
G1 X107.502 Y91.114 E2.84081
G1 X107.015 Y90.708 E2.86061
G1 X107.758 Y89.965 E2.89345
G1 X107.215 Y89.616 E2.91363
G1 X106.529 Y90.302 E2.94395
G1 X106.043 Y89.895 E2.96375
G1 X106.671 Y89.266 E2.99155
G1 X106.128 Y88.917 E3.01173
G1 X105.468 Y89.577 E3.04090
G1 X104.813 Y89.339 E3.06268
G1 X105.585 Y88.568 E3.09677
G1 X105.405 Y88.452 E3.10346
G1 X104.943 Y88.317 E3.11849
G1 X104.457 Y88.803 E3.13997
G1 X104.047 Y88.547 F7800.000
G1 F1200
G1 X102.207 Y87.943 E3.22279
G1 F1200
G1 X101.904 Y87.887 E3.23481
G1 F1200
G1 X101.746 Y87.864 E3.24177
G1 X98.254 Y87.862 E3.39379
G1 X97.978 Y87.902 E3.40593
G1 F1200
G1 X96.945 Y88.226 E3.44858
G1 F1200
G1 X96.058 Y88.517 E3.48856
G1 X94.561 Y89.396 F7800.000
G1 F1200
G1 X95.653 Y88.304 E3.54592
G1 X95.647 Y88.286 E3.54662
G1 X95.081 Y88.452 E3.56852
G1 X93.299 Y89.598 E3.64719
G1 X90.614 Y92.282 E3.78816
G1 X90.458 Y92.414 E3.79575
G1 X90.423 Y92.474 E3.79832
G1 X90.909 Y91.988 F7800.000
G1 F1200
G1 X89.243 Y93.653 E3.88578
G1 X88.352 Y95.605 E3.96543
G1 X89.449 Y94.508 E4.02304
G1 X88.822 Y95.591 E4.06952
G1 X88.692 Y96.326 E4.09722
G1 X88.206 Y96.812 E4.12275
G1 X88.163 Y97.156 F7800.000
G1 F1200
G1 X87.719 Y99.922 E4.24662
G1 F1200
G1 X87.719 Y100.078 E4.25296
G1 X87.890 Y101.141 E4.29679
G1 F1200
G1 X88.163 Y102.844 E4.37305
G1 X87.832 Y103.734 F7800.000
G1 F1200
G1 X88.318 Y103.248 E4.39567
G1 X88.692 Y103.188 E4.40814
G1 X88.786 Y103.719 E4.42590
G1 X88.124 Y104.381 E4.45670
G1 X88.419 Y105.026 E4.48004
G1 X89.079 Y104.366 E4.51076
G1 X89.423 Y104.961 E4.53339
G1 X88.713 Y105.671 E4.56644
G1 X89.008 Y106.317 E4.58978
G1 X89.768 Y105.556 E4.62516
G1 X90.113 Y106.151 E4.64779
G1 X89.302 Y106.962 E4.68550
G1 X89.739 Y107.465 E4.70742
G1 X90.458 Y106.747 E4.74087
G1 X90.802 Y107.342 E4.76350
G1 X90.175 Y107.969 E4.79269
G1 X90.611 Y108.472 E4.81461
G1 X91.245 Y107.839 E4.84410
G1 X91.756 Y108.268 E4.86605
G1 X91.048 Y108.976 E4.89900
G1 X91.484 Y109.479 E4.92093
G1 X92.267 Y108.697 E4.95736
G1 X92.733 Y109.088 E4.97737
G1 X92.501 Y109.402 E4.99023
G1 X92.014 Y109.889 E5.01287
G1 X92.877 Y109.859 F7800.000
G1 F1200
G1 X93.237 Y110.124 E5.03073
G1 F1200
G1 X93.635 Y110.415 E5.04872
G1 X93.983 Y110.631 E5.06365
G1 F1200
G1 X94.246 Y110.544 E5.07288
G1 F1200
G1 X94.509 Y110.457 E5.08093
G1 X95.953 Y111.453 F7800.000
G1 F1200
G1 X96.873 Y111.755 E5.12237
G1 F1200
G1 X97.939 Y112.091 E5.16597
G1 F1200
G1 X98.254 Y112.136 E5.17984
G1 X101.746 Y112.136 E5.33184
G1 X101.904 Y112.113 E5.33881
G1 F1200
G1 X102.208 Y112.056 E5.35086
G1 F1200
G1 X104.000 Y111.467 E5.43140
M104 S200 ; set temperature
M140 S60 ; set bed temperature
G1 Z0.650 F7800.000
G1 X108.735 Y107.473 F7800.000
G1 F3600
G1 X108.681 Y107.539 E5.43731
G1 X105.891 Y109.879 E5.69007
G1 X105.521 Y110.077 E5.71917
G1 X102.013 Y111.346 E5.97816
G1 X97.987 Y111.346 E6.25762
G1 X94.396 Y110.047 E6.52275
G1 X93.960 Y109.756 E6.55911
G1 X91.319 Y107.539 E6.79846
G1 X91.054 Y107.216 E6.82750
G1 X89.180 Y103.961 E7.08818
G1 X88.475 Y100.000 E7.36749
G1 X89.180 Y96.039 E7.64680
G1 X91.054 Y92.785 E7.90747
G1 X91.319 Y92.461 E7.93654
G1 X94.109 Y90.121 E8.18930
G1 X94.479 Y89.923 E8.21840
G1 X97.903 Y88.684 E8.47117
G1 X98.320 Y88.643 E8.50026
G1 X102.016 Y88.655 E8.75681
G1 X105.604 Y89.953 E9.02174
G1 X106.040 Y90.244 E9.05810
G1 X108.681 Y92.461 E9.29745
G1 X108.946 Y92.785 E9.32649
G1 X110.820 Y96.039 E9.58717
G1 X111.525 Y100.000 E9.86648
G1 X110.820 Y103.961 E10.14579
G1 X108.946 Y107.215 E10.40646
G1 X108.830 Y107.357 E10.41921
G1 X107.763 Y106.631 F7800.000
G1 F1800
G1 X105.167 Y108.808 E10.55374
G1 X104.997 Y108.899 E10.56140
G1 X101.787 Y110.060 E10.69693
G1 X98.213 Y110.060 E10.83888
G1 X94.980 Y108.891 E10.97539
G1 X94.733 Y108.726 E10.98720
G1 X92.237 Y106.631 E11.11657
G1 X92.115 Y106.482 E11.12423
G1 X90.406 Y103.515 E11.26020
G1 X89.781 Y100.000 E11.40196
G1 X90.406 Y96.485 E11.54371
G1 X92.115 Y93.518 E11.67968
G1 X92.237 Y93.369 E11.68734
G1 X94.833 Y91.192 E11.82187
G1 X95.003 Y91.101 E11.82954
G1 X98.189 Y89.948 E11.96407
G1 X98.381 Y89.929 E11.97173
G1 X101.788 Y89.940 E12.10702
G1 X105.020 Y91.109 E12.24350
G1 X105.267 Y91.274 E12.25530
G1 X107.763 Y93.369 E12.38468
G1 X107.885 Y93.518 E12.39234
G1 X109.594 Y96.485 E12.52831
G1 X110.219 Y100.000 E12.67006
G1 X109.594 Y103.515 E12.81182
G1 X107.858 Y106.515 E12.94947
G1 X107.763 Y106.631 F7800.000
G1 X109.919 Y108.499 F7800.000
G1 F3600
G1 X108.642 Y109.973 E13.08483
G1 X105.482 Y112.003 E13.34557
G1 X101.878 Y113.062 E13.60631
G1 X98.122 Y113.062 E13.86705
G1 X94.518 Y112.003 E14.12779
G1 X91.358 Y109.973 E14.38853
G1 X88.899 Y107.134 E14.64927
G1 X87.338 Y103.717 E14.91001
G1 X86.804 Y100.000 E15.17071
G1 X87.338 Y96.283 E15.43140
G1 X88.899 Y92.866 E15.69214
G1 X91.358 Y90.027 E15.95288
G1 X94.518 Y87.997 E16.21362
G1 X98.122 Y86.938 E16.47436
G1 X101.878 Y86.938 E16.73510
G1 X105.482 Y87.997 E16.99584
G1 X108.642 Y90.027 E17.25658
G1 X111.101 Y92.866 E17.51732
G1 X112.662 Y96.283 E17.77806
G1 X113.196 Y100.000 E18.03876
G1 X112.662 Y103.717 E18.29946
G1 X111.101 Y107.134 E18.56019
G1 X110.017 Y108.386 E18.67516
G1 X110.890 Y109.341 F7800.000
G1 F1800
G1 X109.492 Y110.954 E18.75993
G1 X106.022 Y113.185 E18.92376
G1 X102.063 Y114.347 E19.08759
G1 X97.937 Y114.347 E19.25142
G1 X93.978 Y113.185 E19.41526
G1 X90.508 Y110.954 E19.57909
G1 X87.806 Y107.836 E19.74292
G1 X86.092 Y104.083 E19.90674
G1 X85.505 Y100.000 E20.07055
G1 X86.092 Y95.917 E20.23436
G1 X87.806 Y92.164 E20.39818
G1 X90.508 Y89.046 E20.56201
G1 X93.978 Y86.815 E20.72584
G1 X97.937 Y85.653 E20.88967
G1 X102.063 Y85.653 E21.05351
G1 X106.022 Y86.815 E21.21734
G1 X109.492 Y89.046 E21.38117
G1 X112.194 Y92.164 E21.54500
G1 X113.908 Y95.917 E21.70883
G1 X114.495 Y100.000 E21.87263
G1 X113.908 Y104.083 E22.03644
G1 X112.194 Y107.836 E22.20026
G1 X110.989 Y109.228 E22.27337
G1 X109.898 Y109.215 F7800.000
G1 Z0.950 F7800.000
G1 X108.551 Y107.421 F7800.000
G1 F3600
G1 X105.822 Y109.718 E22.52100
G1 X105.396 Y109.946 E22.55452
G1 X102.073 Y111.144 E22.79974
G1 X101.597 Y111.191 E22.83295
G1 X98.403 Y111.191 E23.05464
G1 X97.927 Y111.144 E23.08785
G1 X94.604 Y109.946 E23.33307
G1 X94.186 Y109.722 E23.36594
G1 X91.471 Y107.448 E23.61184
G1 X91.165 Y107.076 E23.64530
G1 X89.401 Y104.008 E23.89090
G1 X89.261 Y103.546 E23.92442
G1 X88.650 Y100.000 E24.17423
G1 X89.261 Y96.454 E24.42405
G1 X89.401 Y95.992 E24.45756
G1 X91.165 Y92.924 E24.70317
G1 X91.471 Y92.551 E24.73667
G1 X94.178 Y90.282 E24.98189
G1 X94.604 Y90.054 E25.01541
G1 X97.927 Y88.856 E25.26063
G1 X98.403 Y88.809 E25.29384
G1 X101.597 Y88.809 E25.51553
G1 X102.073 Y88.856 E25.54874
G1 X105.396 Y90.054 E25.79396
G1 X105.814 Y90.278 E25.82683
G1 X108.529 Y92.552 E26.07272
G1 X108.835 Y92.924 E26.10619
G1 X110.599 Y95.992 E26.35179
G1 X110.739 Y96.454 E26.38531
G1 X111.350 Y100.000 E26.63512
G1 X110.739 Y103.546 E26.88494
G1 X110.599 Y104.008 E26.91845
G1 X108.835 Y107.076 E27.16406
G1 X108.646 Y107.305 E27.18470
G1 X107.611 Y106.540 F7800.000
G1 F1800
G1 X105.098 Y108.647 E27.31491
G1 X104.872 Y108.768 E27.32509
G1 X101.787 Y109.880 E27.45530
G1 X101.534 Y109.905 E27.46542
G1 X98.466 Y109.905 E27.58722
G1 X98.213 Y109.880 E27.59735
G1 X95.128 Y108.768 E27.72756
G1 X94.904 Y108.648 E27.73763
G1 X92.389 Y106.540 E27.86796
G1 X92.226 Y106.342 E27.87812
G1 X90.589 Y103.495 E28.00856
G1 X90.514 Y103.250 E28.01873
G1 X89.955 Y100.000 E28.14967
G1 X90.514 Y96.750 E28.28061
G1 X90.589 Y96.505 E28.29079
G1 X92.226 Y93.658 E28.42122
G1 X92.389 Y93.460 E28.43140
G1 X94.902 Y91.353 E28.56161
G1 X95.128 Y91.232 E28.57179
G1 X98.213 Y90.120 E28.70200
G1 X98.466 Y90.095 E28.71212
G1 X101.534 Y90.095 E28.83392
G1 X101.787 Y90.120 E28.84405
G1 X104.872 Y91.232 E28.97426
G1 X105.096 Y91.352 E28.98433
G1 X107.611 Y93.460 E29.11466
G1 X107.774 Y93.658 E29.12482
G1 X109.411 Y96.505 E29.25526
G1 X109.486 Y96.750 E29.26544
G1 X110.045 Y100.000 E29.39637
G1 X109.486 Y103.250 E29.52731
G1 X109.411 Y103.495 E29.53749
G1 X107.774 Y106.342 E29.66792
G1 X107.706 Y106.424 E29.67214
G1 X107.611 Y106.540 F7800.000
G1 X109.899 Y108.522 F7800.000
G1 F3600
G1 X108.642 Y109.973 E29.80536
G1 X105.482 Y112.003 E30.06610
G1 X101.878 Y113.062 E30.32684
G1 X98.122 Y113.062 E30.58759
G1 X94.518 Y112.003 E30.84833
G1 X91.358 Y109.973 E31.10907
G1 X88.899 Y107.134 E31.36981
