; generated by Slic3r 1.3.0-dev on 2017-04-26 at 03:50:04

; external perimeters extrusion width = 0.60mm (2.67mm^3/s)
; perimeters extrusion width = 1.02mm (11.72mm^3/s)
; infill extrusion width = 1.46mm (22.62mm^3/s)
; solid infill extrusion width = 1.02mm (3.91mm^3/s)
; top infill extrusion width = 1.02mm (2.93mm^3/s)

M107
M190 S65 ; set bed temperature and wait for it to be reached
M104 S200 ; set temperature
G28 ; home all axes
G1 Z5 F5000 ; lift nozzle

; Filament gcode

M109 S200 ; set temperature and wait for it to be reached
G21 ; set units to millimeters
G90 ; use absolute coordinates
M82 ; use absolute distances for extrusion
G92 E0
G1 Z0.350 F7800.000
G1 E-2.00000 F2400.00000
G92 E0
G1 X35.049 Y74.942 F7800.000
G1 E2.00000 F2400.00000
G1 F300
G1 X80.398 Y50.287 E3.59714
G1 X81.980 Y49.478 E3.65211
G1 X84.322 Y48.717 E3.72829
G1 X85.866 Y48.472 E3.77668
G1 X87.099 Y48.375 E3.81495
G1 X164.599 Y48.375 E6.21290
G1 X165.832 Y48.472 E6.25116
G1 X167.377 Y48.717 E6.29955
G1 X169.718 Y49.478 E6.37574
G1 X171.113 Y50.189 E6.42418
G1 X173.107 Y51.637 E6.50043
G1 X174.212 Y52.742 E6.54878
G1 X175.660 Y54.736 E6.62501
G1 X176.371 Y56.131 E6.67346
G1 X177.132 Y58.473 E6.74965
G1 X177.377 Y60.017 E6.79804
G1 X177.474 Y61.250 E6.83630
G1 X177.474 Y138.750 E9.23425
G1 X177.377 Y139.983 E9.27251
G1 X177.132 Y141.527 E9.32090
G1 X176.371 Y143.869 E9.39709
G1 X175.660 Y145.264 E9.44553
G1 X174.212 Y147.258 E9.52178
G1 X173.107 Y148.363 E9.57012
G1 X171.114 Y149.811 E9.64636
G1 X169.718 Y150.522 E9.69481
G1 X167.377 Y151.283 E9.77100
G1 X165.832 Y151.528 E9.81939
G1 X164.599 Y151.625 E9.85765
G1 X87.099 Y151.625 E12.25560
G1 X85.866 Y151.528 E12.29386
G1 X84.322 Y151.283 E12.34225
G1 X81.980 Y150.522 E12.41844
G1 X80.585 Y149.811 E12.46689
G1 X79.400 Y149.068 E12.51016
G1 X31.460 Y112.693 E14.37213
G1 X30.058 Y111.494 E14.42924
G1 X29.408 Y110.863 E14.45725
G1 X28.703 Y110.120 E14.48894
G1 X28.103 Y109.435 E14.51711
G1 X27.230 Y108.318 E14.56100
G1 X26.488 Y107.244 E14.60138
G1 X25.728 Y105.989 E14.64677
G1 X25.325 Y105.229 E14.67339
G1 X24.690 Y103.888 E14.71931
G1 X24.374 Y103.102 E14.74550
G1 X23.878 Y101.693 E14.79174
G1 X23.648 Y100.891 E14.81753
G1 X23.296 Y99.422 E14.86428
G1 X23.154 Y98.618 E14.88955
G1 X23.009 Y97.605 E14.92121
G1 X22.898 Y96.310 E14.96143
G1 X22.854 Y94.757 E15.00949
G1 X22.902 Y93.545 E15.04703
G1 X22.998 Y92.425 E15.08182
G1 X23.166 Y91.247 E15.11864
G1 X23.383 Y90.115 E15.15428
G1 X23.664 Y88.989 E15.19021
G1 X24.004 Y87.862 E15.22661
G1 X24.393 Y86.789 E15.26194
G1 X24.859 Y85.677 E15.29925
G1 X25.342 Y84.679 E15.33356
G1 X25.933 Y83.600 E15.37161
G1 X26.504 Y82.674 E15.40528
G1 X26.977 Y81.973 E15.43144
G1 X27.865 Y80.802 E15.47693
G1 X28.425 Y80.132 E15.50391
G1 X29.411 Y79.077 E15.54861
G1 X30.057 Y78.450 E15.57648
G1 X31.134 Y77.514 E15.62061
G1 X31.852 Y76.949 E15.64889
G1 X33.009 Y76.137 E15.69261
G1 X33.798 Y75.639 E15.72150
G1 X34.970 Y74.986 E15.76300
G1 X35.347 Y75.491 F7800.000
G1 F300
G1 X80.697 Y50.836 E17.36014
G1 X82.264 Y50.035 E17.41459
G1 X84.420 Y49.334 E17.48473
G1 X85.964 Y49.090 E17.53312
G1 X87.099 Y49.000 E17.56835
G1 X164.599 Y49.000 E19.96630
G1 X165.734 Y49.090 E20.00153
G1 X167.279 Y49.334 E20.04992
G1 X169.435 Y50.035 E20.12006
G1 X170.830 Y50.746 E20.16850
G1 X172.665 Y52.079 E20.23870
G1 X173.770 Y53.184 E20.28705
G1 X175.103 Y55.019 E20.35723
G1 X175.814 Y56.415 E20.40568
G1 X176.515 Y58.570 E20.47582
G1 X176.760 Y60.115 E20.52421
G1 X176.849 Y61.250 E20.55944
G1 X176.849 Y138.750 E22.95739
G1 X176.760 Y139.885 E22.99262
G1 X176.515 Y141.430 E23.04100
G1 X175.814 Y143.586 E23.11115
G1 X175.103 Y144.981 E23.15959
G1 X173.770 Y146.816 E23.22978
G1 X172.665 Y147.921 E23.27813
G1 X170.830 Y149.254 E23.34832
G1 X169.435 Y149.965 E23.39677
G1 X167.279 Y150.666 E23.46691
G1 X165.734 Y150.910 E23.51530
G1 X164.599 Y151.000 E23.55052
G1 X87.099 Y151.000 E25.94847
G1 X85.964 Y150.910 E25.98370
G1 X84.420 Y150.666 E26.03209
G1 X82.264 Y149.965 E26.10223
G1 X80.869 Y149.254 E26.15068
G1 X79.778 Y148.570 E26.19052
G1 X31.841 Y112.198 E28.05238
G1 X30.488 Y111.040 E28.10747
G1 X29.861 Y110.433 E28.13447
G1 X29.156 Y109.690 E28.16616
G1 X28.579 Y109.029 E28.19331
G1 X27.725 Y107.936 E28.23624
G1 X27.020 Y106.915 E28.27461
G1 X26.277 Y105.691 E28.31893
G1 X25.887 Y104.957 E28.34465
G1 X25.268 Y103.648 E28.38944
G1 X24.961 Y102.890 E28.41476
G1 X24.477 Y101.515 E28.45985
G1 X24.254 Y100.740 E28.48481
G1 X24.006 Y99.746 E28.51652
G1 X23.773 Y98.529 E28.55483
G1 X23.628 Y97.517 E28.58649
G1 X23.522 Y96.285 E28.62473
G1 X23.479 Y94.774 E28.67150
G1 X23.526 Y93.577 E28.70859
G1 X23.617 Y92.506 E28.74183
G1 X23.783 Y91.341 E28.77824
G1 X23.990 Y90.261 E28.81225
G1 X24.269 Y89.145 E28.84785
G1 X24.593 Y88.071 E28.88258
G1 X24.979 Y87.006 E28.91762
G1 X25.423 Y85.946 E28.95318
G1 X25.903 Y84.954 E28.98729
G1 X26.465 Y83.926 E29.02353
G1 X27.035 Y83.005 E29.05704
G1 X27.716 Y82.019 E29.09410
G1 X28.359 Y81.184 E29.12673
G1 X28.900 Y80.538 E29.15279
G1 X29.864 Y79.508 E29.19646
G1 X30.487 Y78.903 E29.22332
G1 X31.541 Y77.989 E29.26648
G1 X32.233 Y77.445 E29.29372
G1 X33.364 Y76.651 E29.33649
G1 X34.125 Y76.172 E29.36429
G1 X35.269 Y75.535 E29.40480
G1 X35.646 Y76.040 F7800.000
G1 F300
G1 X80.995 Y51.385 E31.00194
G1 X82.547 Y50.592 E31.05587
G1 X84.517 Y49.952 E31.11997
G1 X86.062 Y49.707 E31.16836
G1 X87.099 Y49.625 E31.20055
G1 X164.599 Y49.625 E33.59850
G1 X165.636 Y49.707 E33.63069
G1 X167.181 Y49.952 E33.67908
G1 X169.151 Y50.592 E33.74318
G1 X170.546 Y51.303 E33.79162
G1 X172.223 Y52.521 E33.85576
G1 X173.328 Y53.626 E33.90411
G1 X174.547 Y55.303 E33.96825
G1 X175.257 Y56.698 E34.01670
G1 X175.898 Y58.668 E34.08079
G1 X176.142 Y60.213 E34.12918
G1 X176.224 Y61.250 E34.16137
G1 X176.224 Y138.750 E36.55932
G1 X176.142 Y139.787 E36.59151
G1 X175.898 Y141.332 E36.63990
G1 X175.257 Y143.302 E36.70400
G1 X174.547 Y144.697 E36.75244
G1 X173.328 Y146.374 E36.81658
G1 X172.223 Y147.479 E36.86493
G1 X170.546 Y148.697 E36.92907
G1 X169.151 Y149.408 E36.97752
G1 X167.181 Y150.048 E37.04161
G1 X165.636 Y150.293 E37.09000
G1 X164.599 Y150.375 E37.12219
G1 X87.099 Y150.375 E39.52014
G1 X86.062 Y150.293 E39.55234
G1 X84.517 Y150.048 E39.60072
G1 X82.547 Y149.408 E39.66482
G1 X81.152 Y148.697 E39.71326
G1 X80.155 Y148.072 E39.74967
G1 X32.221 Y111.702 E41.61142
G1 X30.918 Y110.587 E41.66450
G1 X30.315 Y110.003 E41.69048
G1 X29.609 Y109.260 E41.72217
G1 X29.054 Y108.624 E41.74831
G1 X28.219 Y107.555 E41.79027
G1 X27.552 Y106.587 E41.82665
G1 X26.826 Y105.393 E41.86988
G1 X26.450 Y104.684 E41.89470
G1 X26.003 Y103.761 E41.92644
G1 X25.549 Y102.677 E41.96281
G1 X25.199 Y101.712 E41.99455
G1 X24.936 Y100.863 E42.02206
G1 X24.612 Y99.594 E42.06259
G1 X24.391 Y98.441 E42.09891
G1 X24.247 Y97.428 E42.13056
G1 X24.146 Y96.261 E42.16683
G1 X24.103 Y94.791 E42.21231
G1 X24.150 Y93.608 E42.24894
G1 X24.237 Y92.588 E42.28063
G1 X24.401 Y91.436 E42.31664
G1 X24.598 Y90.408 E42.34903
G1 X24.874 Y89.302 E42.38429
G1 X25.182 Y88.279 E42.41735
G1 X25.565 Y87.223 E42.45210
G1 X25.987 Y86.215 E42.48590
G1 X26.465 Y85.229 E42.51981
G1 X26.998 Y84.252 E42.55425
G1 X27.565 Y83.335 E42.58761
G1 X28.211 Y82.400 E42.62278
G1 X28.854 Y81.567 E42.65534
G1 X29.375 Y80.944 E42.68047
G1 X30.317 Y79.938 E42.72310
G1 X30.917 Y79.357 E42.74896
G1 X31.947 Y78.464 E42.79114
G1 X32.613 Y77.940 E42.81735
G1 X33.720 Y77.165 E42.85916
G1 X34.451 Y76.705 E42.88588
G1 X35.567 Y76.084 E42.92540
G1 E40.92540 F2400.00000
G92 E0
G1 X86.415 Y64.987 F7800.000
G1 E2.00000 F2400.00000
G1 F300
G1 X86.343 Y64.268 E2.02236
G1 X86.397 Y63.571 E2.04396
G1 X86.628 Y62.813 E2.06850
G1 X86.974 Y62.163 E2.09128
G1 X87.443 Y61.592 E2.11414
G1 X88.011 Y61.126 E2.13687
G1 X88.668 Y60.775 E2.15991
G1 X89.401 Y60.561 E2.18353
G1 X90.099 Y60.493 E2.20525
G1 X90.831 Y60.564 E2.22799
G1 X91.538 Y60.779 E2.25086
G1 X92.187 Y61.126 E2.27363
G1 X92.707 Y61.553 E2.29444
G1 X93.676 Y59.875 E2.35438
G1 X98.023 Y59.875 E2.48889
G1 X99.706 Y62.790 E2.59304
G1 X101.993 Y62.790 E2.66379
G1 X103.676 Y59.875 E2.76794
G1 X108.023 Y59.875 E2.90245
G1 X109.706 Y62.790 E3.00660
G1 X111.992 Y62.790 E3.07735
G1 X113.676 Y59.875 E3.18150
G1 X118.023 Y59.875 E3.31601
G1 X119.706 Y62.790 E3.42017
G1 X121.992 Y62.790 E3.49092
G1 X123.676 Y59.875 E3.59507
G1 X128.023 Y59.875 E3.72958
G1 X129.706 Y62.790 E3.83374
G1 X131.992 Y62.790 E3.90449
G1 X133.676 Y59.875 E4.00864
G1 X138.023 Y59.875 E4.14315
G1 X139.706 Y62.790 E4.24730
G1 X141.992 Y62.790 E4.31805
G1 X143.676 Y59.875 E4.42221
G1 X148.023 Y59.875 E4.55672
G1 X149.706 Y62.790 E4.66087
G1 X151.992 Y62.790 E4.73162
G1 X153.676 Y59.875 E4.83577
G1 X158.023 Y59.875 E4.97028
G1 X158.991 Y61.553 E5.03022
G1 X159.511 Y61.126 E5.05103
G1 X160.168 Y60.775 E5.07407
G1 X160.901 Y60.561 E5.09769
G1 X161.599 Y60.493 E5.11940
G1 X162.331 Y60.564 E5.14215
G1 X163.038 Y60.779 E5.16502
G1 X163.687 Y61.126 E5.18779
G1 X164.255 Y61.592 E5.21052
G1 X164.724 Y62.163 E5.23338
G1 X165.071 Y62.813 E5.25616
G1 X165.284 Y63.513 E5.27882
G1 X165.357 Y64.250 E5.30173
G1 X165.284 Y64.987 E5.32463
G1 X165.071 Y65.687 E5.34729
G1 X164.724 Y66.337 E5.37008
G1 X164.255 Y66.908 E5.39294
G1 X163.687 Y67.374 E5.41566
G1 X163.038 Y67.721 E5.43843
G1 X162.331 Y67.936 E5.46131
G1 X161.599 Y68.007 E5.48405
G1 X160.868 Y67.936 E5.50680
G1 X160.160 Y67.721 E5.52967
G1 X159.511 Y67.374 E5.55244
G1 X159.189 Y67.109 E5.56535
G1 X158.950 Y67.311 E5.57503
G1 X160.196 Y69.470 E5.65214
G1 X158.514 Y72.385 E5.75629
G1 X160.196 Y75.300 E5.86043
G1 X158.514 Y78.215 E5.96458
G1 X160.196 Y81.130 E6.06873
G1 X158.514 Y84.045 E6.17288
G1 X160.196 Y86.960 E6.27702
G1 X158.514 Y89.875 E6.38117
G1 X160.196 Y92.790 E6.48532
G1 X158.513 Y95.705 E6.58946
G1 X160.196 Y98.620 E6.69361
G1 X158.514 Y101.535 E6.79776
G1 X160.196 Y104.450 E6.90190
G1 X158.513 Y107.365 E7.00605
G1 X160.196 Y110.280 E7.11020
G1 X158.514 Y113.195 E7.21435
G1 X160.196 Y116.110 E7.31849
G1 X158.513 Y119.025 E7.42264
G1 X160.196 Y121.940 E7.52679
G1 X158.513 Y124.855 E7.63094
G1 X160.196 Y127.770 E7.73508
G1 X158.514 Y130.685 E7.83923
G1 X159.605 Y132.576 E7.90680
G1 X160.168 Y132.275 E7.92654
G1 X160.901 Y132.061 E7.95016
G1 X161.599 Y131.993 E7.97188
G1 X162.331 Y132.064 E7.99462
G1 X163.038 Y132.279 E8.01749
G1 X163.687 Y132.626 E8.04026
G1 X164.255 Y133.092 E8.06299
G1 X164.724 Y133.663 E8.08585
G1 X165.071 Y134.313 E8.10864
G1 X165.284 Y135.013 E8.13129
G1 X165.357 Y135.750 E8.15420
G1 X165.284 Y136.487 E8.17710
G1 X165.071 Y137.187 E8.19976
G1 X164.724 Y137.837 E8.22255
G1 X164.255 Y138.408 E8.24541
G1 X163.687 Y138.874 E8.26813
G1 X163.038 Y139.221 E8.29090
G1 X162.331 Y139.436 E8.31378
G1 X161.599 Y139.507 E8.33652
G1 X160.868 Y139.436 E8.35927
G1 X160.160 Y139.221 E8.38214
G1 X159.511 Y138.874 E8.40491
G1 X158.943 Y138.408 E8.42764
G1 X158.474 Y137.837 E8.45050
G1 X158.223 Y137.365 E8.46706
G1 X153.676 Y137.365 E8.60775
G1 X151.993 Y134.450 E8.71189
G1 X149.706 Y134.450 E8.78265
G1 X148.023 Y137.365 E8.88679
G1 X143.676 Y137.365 E9.02130
G1 X141.993 Y134.450 E9.12545
G1 X139.706 Y134.450 E9.19621
G1 X138.023 Y137.365 E9.30035
G1 X133.676 Y137.365 E9.43486
G1 X131.993 Y134.450 E9.53901
G1 X129.706 Y134.450 E9.60977
G1 X128.023 Y137.365 E9.71391
G1 X123.676 Y137.365 E9.84842
G1 X121.993 Y134.450 E9.95256
G1 X119.706 Y134.450 E10.02332
G1 X118.023 Y137.365 E10.12747
G1 X113.676 Y137.365 E10.26198
G1 X111.993 Y134.450 E10.36612
G1 X109.706 Y134.450 E10.43688
G1 X108.023 Y137.365 E10.54103
G1 X103.676 Y137.365 E10.67554
G1 X101.993 Y134.450 E10.77968
G1 X99.706 Y134.450 E10.85044
G1 X98.023 Y137.365 E10.95458
G1 X93.476 Y137.365 E11.09527
G1 X93.224 Y137.837 E11.11183
G1 X92.755 Y138.408 E11.13469
G1 X92.187 Y138.874 E11.15742
G1 X91.538 Y139.221 E11.18019
G1 X90.831 Y139.436 E11.20306
G1 X90.099 Y139.507 E11.22581
G1 X89.368 Y139.436 E11.24855
G1 X88.660 Y139.221 E11.27143
G1 X88.011 Y138.874 E11.29420
G1 X87.443 Y138.408 E11.31692
G1 X86.974 Y137.837 E11.33978
G1 X86.628 Y137.187 E11.36257
G1 X86.415 Y136.487 E11.38523
G1 X86.342 Y135.750 E11.40813
G1 X86.415 Y135.013 E11.43104
G1 X86.628 Y134.313 E11.45369
G1 X86.974 Y133.663 E11.47648
G1 X87.443 Y133.092 E11.49934
G1 X88.011 Y132.626 E11.52207
G1 X88.668 Y132.275 E11.54510
G1 X89.401 Y132.061 E11.56872
G1 X90.099 Y131.993 E11.59044
G1 X90.831 Y132.064 E11.61318
G1 X91.538 Y132.279 E11.63606
G1 X92.093 Y132.576 E11.65553
G1 X93.185 Y130.685 E11.72310
G1 X91.502 Y127.770 E11.82725
G1 X93.185 Y124.855 E11.93139
G1 X91.502 Y121.940 E12.03554
G1 X93.185 Y119.025 E12.13969
G1 X91.502 Y116.110 E12.24383
G1 X93.185 Y113.195 E12.34798
G1 X91.502 Y110.280 E12.45213
G1 X93.185 Y107.365 E12.55627
G1 X91.502 Y104.450 E12.66042
G1 X93.185 Y101.535 E12.76457
G1 X91.502 Y98.620 E12.86872
G1 X93.185 Y95.705 E12.97286
G1 X91.502 Y92.790 E13.07701
G1 X93.185 Y89.875 E13.18116
G1 X91.502 Y86.960 E13.28530
G1 X93.185 Y84.045 E13.38945
G1 X91.502 Y81.130 E13.49360
G1 X93.185 Y78.215 E13.59774
G1 X91.502 Y75.300 E13.70189
G1 X93.185 Y72.385 E13.80604
G1 X91.502 Y69.470 E13.91018
G1 X92.748 Y67.311 E13.98731
G1 X92.510 Y67.109 E13.99699
G1 X92.187 Y67.374 E14.00990
G1 X91.538 Y67.721 E14.03267
G1 X90.831 Y67.936 E14.05554
G1 X90.099 Y68.007 E14.07829
G1 X89.368 Y67.936 E14.10103
G1 X88.660 Y67.721 E14.12391
G1 X88.011 Y67.374 E14.14668
G1 X87.443 Y66.908 E14.16940
G1 X86.974 Y66.337 E14.19226
G1 X86.628 Y65.687 E14.21505
G1 X86.441 Y65.073 E14.23492
G1 X87.039 Y64.891 F7800.000
G1 F300
G1 X86.971 Y64.261 E14.25454
G1 X87.015 Y63.688 E14.27232
G1 X87.208 Y63.053 E14.29284
G1 X87.497 Y62.512 E14.31182
G1 X87.887 Y62.036 E14.33086
G1 X88.360 Y61.648 E14.34979
G1 X88.905 Y61.357 E14.36892
G1 X89.520 Y61.177 E14.38872
G1 X90.099 Y61.121 E14.40674
G1 X90.709 Y61.180 E14.42568
G1 X91.298 Y61.359 E14.44473
G1 X91.838 Y61.648 E14.46370
G1 X92.311 Y62.036 E14.48263
G1 X92.803 Y62.636 E14.50662
G1 X94.036 Y60.500 E14.58292
G1 X97.662 Y60.500 E14.69510
G1 X99.345 Y63.415 E14.79925
G1 X102.353 Y63.415 E14.89233
G1 X104.036 Y60.500 E14.99648
G1 X107.662 Y60.500 E15.10867
G1 X109.345 Y63.415 E15.21281
G1 X112.353 Y63.415 E15.30589
G1 X114.036 Y60.500 E15.41005
G1 X117.662 Y60.500 E15.52223
G1 X119.345 Y63.415 E15.62638
G1 X122.353 Y63.415 E15.71946
G1 X124.036 Y60.500 E15.82361
G1 X127.662 Y60.500 E15.93580
G1 X129.345 Y63.415 E16.03995
G1 X132.353 Y63.415 E16.13303
G1 X134.036 Y60.500 E16.23718
G1 X137.662 Y60.500 E16.34936
G1 X139.345 Y63.415 E16.45352
G1 X142.353 Y63.415 E16.54659
G1 X144.036 Y60.500 E16.65075
G1 X147.662 Y60.500 E16.76293
G1 X149.345 Y63.415 E16.86708
G1 X152.353 Y63.415 E16.96016
G1 X154.036 Y60.500 E17.06431
G1 X157.662 Y60.500 E17.17650
G1 X158.895 Y62.635 E17.25280
G1 X159.387 Y62.036 E17.27679
G1 X159.860 Y61.648 E17.29572
G1 X160.405 Y61.357 E17.31485
G1 X161.020 Y61.177 E17.33464
G1 X161.599 Y61.121 E17.35266
G1 X162.209 Y61.180 E17.37161
G1 X162.798 Y61.359 E17.39066
G1 X163.338 Y61.648 E17.40962
G1 X163.811 Y62.036 E17.42855
G1 X164.202 Y62.512 E17.44759
G1 X164.490 Y63.053 E17.46657
G1 X164.668 Y63.636 E17.48544
G1 X164.729 Y64.250 E17.50452
G1 X164.668 Y64.864 E17.52360
G1 X164.490 Y65.447 E17.54247
G1 X164.202 Y65.988 E17.56145
G1 X163.811 Y66.464 E17.58049
G1 X163.338 Y66.852 E17.59941
G1 X162.798 Y67.141 E17.61838
G1 X162.209 Y67.320 E17.63743
G1 X161.599 Y67.379 E17.65637
G1 X160.990 Y67.320 E17.67532
G1 X160.401 Y67.141 E17.69437
G1 X159.860 Y66.852 E17.71333
G1 X159.387 Y66.464 E17.73226
G1 X158.997 Y65.988 E17.75130
G1 X158.575 Y65.198 E17.77901
G1 X157.792 Y66.555 E17.82748
G1 X159.475 Y69.470 E17.93163
G1 X157.792 Y72.385 E18.03577
G1 X159.475 Y75.300 E18.13992
G1 X157.792 Y78.215 E18.24407
G1 X159.475 Y81.130 E18.34822
G1 X157.792 Y84.045 E18.45236
G1 X159.475 Y86.960 E18.55651
G1 X157.792 Y89.875 E18.66066
G1 X159.475 Y92.790 E18.76480
G1 X157.792 Y95.705 E18.86895
G1 X159.475 Y98.620 E18.97310
G1 X157.792 Y101.535 E19.07724
G1 X159.475 Y104.450 E19.18139
G1 X157.792 Y107.365 E19.28554
G1 X159.475 Y110.280 E19.38969
G1 X157.792 Y113.195 E19.49383
G1 X159.475 Y116.110 E19.59798
G1 X157.792 Y119.025 E19.70213
