; generated by Slic3r 1.3.0-dev on 2017-04-26 at 02:38:08

; external perimeters extrusion width = 0.60mm (4.82mm^3/s)
; perimeters extrusion width = 1.01mm (16.96mm^3/s)
; infill extrusion width = 1.01mm (22.62mm^3/s)
; solid infill extrusion width = 1.01mm (5.65mm^3/s)
; top infill extrusion width = 1.01mm (4.24mm^3/s)

M107
M190 S65 ; set bed temperature and wait for it to be reached
M104 S205 ; set temperature
G28 ; home all axes
G1 Z5 F5000 ; lift nozzle

; Filament gcode

M109 S205 ; set temperature and wait for it to be reached
G21 ; set units to millimeters
G90 ; use absolute coordinates
M82 ; use absolute distances for extrusion
G92 E0
G1 Z0.350 F7800.000
G1 E-2.00000 F2400.00000
G92 E0
G1 X83.753 Y84.438 F7800.000
G1 E2.00000 F2400.00000
G1 F300
G1 X86.909 Y81.703 E2.12922
G1 X88.795 Y80.491 E2.19858
G1 X92.596 Y78.756 E2.32785
G1 X94.745 Y78.125 E2.39716
G1 X98.879 Y77.530 E2.52640
G1 X101.121 Y77.531 E2.59576
G1 X105.255 Y78.125 E2.72498
G1 X107.404 Y78.756 E2.79429
G1 X111.205 Y80.492 E2.92358
G1 X113.091 Y81.704 E2.99294
G1 X116.247 Y84.438 E3.12214
G1 X117.714 Y86.131 E3.19147
G1 X119.974 Y89.647 E3.32078
G1 X120.905 Y91.686 E3.39014
G1 X122.081 Y95.692 E3.51931
G1 X122.400 Y97.910 E3.58866
G1 X122.400 Y102.090 E3.71797
G1 X122.081 Y104.308 E3.78731
G1 X120.905 Y108.314 E3.91650
G1 X119.974 Y110.353 E3.98586
G1 X117.714 Y113.868 E4.11516
G1 X116.247 Y115.562 E4.18448
G1 X113.091 Y118.297 E4.31370
G1 X111.205 Y119.509 E4.38307
G1 X107.404 Y121.244 E4.51234
G1 X105.255 Y121.875 E4.58165
G1 X101.121 Y122.470 E4.71089
G1 X98.879 Y122.469 E4.78024
G1 X94.745 Y121.875 E4.90946
G1 X92.596 Y121.244 E4.97877
G1 X88.795 Y119.508 E5.10806
G1 X86.909 Y118.296 E5.17743
G1 X83.753 Y115.562 E5.30662
G1 X82.286 Y113.869 E5.37595
G1 X80.026 Y110.353 E5.50526
G1 X79.095 Y108.314 E5.57462
G1 X77.919 Y104.308 E5.70380
G1 X77.600 Y102.090 E5.77314
G1 X77.600 Y97.910 E5.90245
G1 X77.919 Y95.692 E5.97180
G1 X79.095 Y91.686 E6.10098
G1 X80.026 Y89.647 E6.17034
G1 X82.286 Y86.132 E6.29964
G1 X83.694 Y84.506 E6.36618
G1 X84.162 Y84.911 F7800.000
G1 F300
G1 X87.318 Y82.176 E6.49540
G1 X89.055 Y81.060 E6.55926
G1 X92.855 Y79.325 E6.68853
G1 X94.834 Y78.744 E6.75234
G1 X98.968 Y78.149 E6.88158
G1 X101.032 Y78.149 E6.94543
G1 X105.166 Y78.744 E7.07464
G1 X107.144 Y79.325 E7.13846
G1 X110.946 Y81.060 E7.26774
G1 X112.682 Y82.176 E7.33161
G1 X115.837 Y84.910 E7.46080
G1 X117.188 Y86.469 E7.52463
G1 X119.448 Y89.985 E7.65394
G1 X120.305 Y91.862 E7.71779
G1 X121.481 Y95.868 E7.84697
G1 X121.775 Y97.910 E7.91081
G1 X121.775 Y102.090 E8.04012
G1 X121.481 Y104.132 E8.10397
G1 X120.305 Y108.138 E8.23315
G1 X119.448 Y110.015 E8.29700
G1 X117.188 Y113.531 E8.42630
G1 X115.838 Y115.089 E8.49013
G1 X112.682 Y117.824 E8.61934
G1 X110.945 Y118.940 E8.68320
G1 X107.145 Y120.675 E8.81247
G1 X105.166 Y121.256 E8.87628
G1 X101.032 Y121.851 E9.00552
G1 X98.968 Y121.851 E9.06938
G1 X94.834 Y121.256 E9.19859
G1 X92.856 Y120.675 E9.26240
G1 X89.054 Y118.940 E9.39169
G1 X87.318 Y117.824 E9.45555
G1 X84.163 Y115.090 E9.58475
G1 X82.812 Y113.531 E9.64858
G1 X80.552 Y110.015 E9.77788
G1 X79.695 Y108.138 E9.84174
G1 X78.519 Y104.132 E9.97091
G1 X78.225 Y102.090 E10.03476
G1 X78.225 Y97.910 E10.16407
G1 X78.519 Y95.868 E10.22791
G1 X79.695 Y91.862 E10.35710
G1 X80.552 Y89.985 E10.42095
G1 X82.812 Y86.469 E10.55025
G1 X84.103 Y84.979 E10.61129
G1 X84.572 Y85.383 F7800.000
G1 F300
G1 X87.728 Y82.648 E10.74050
G1 X89.314 Y81.628 E10.79886
G1 X93.115 Y79.893 E10.92813
G1 X94.923 Y79.362 E10.98644
G1 X99.057 Y78.768 E11.11568
G1 X100.943 Y78.768 E11.17403
G1 X105.077 Y79.362 E11.30324
G1 X106.885 Y79.893 E11.36155
G1 X110.686 Y81.628 E11.49084
G1 X112.273 Y82.648 E11.54920
G1 X115.428 Y85.383 E11.67839
G1 X116.663 Y86.807 E11.73672
G1 X118.922 Y90.323 E11.86603
G1 X119.706 Y92.038 E11.92438
G1 X120.882 Y96.044 E12.05355
G1 X121.150 Y97.910 E12.11189
G1 X121.150 Y102.090 E12.24120
G1 X120.882 Y103.956 E12.29954
G1 X119.706 Y107.962 E12.42873
G1 X118.922 Y109.677 E12.48708
G1 X116.663 Y113.193 E12.61638
G1 X115.428 Y114.617 E12.67470
G1 X112.272 Y117.352 E12.80391
G1 X110.686 Y118.372 E12.86227
G1 X106.885 Y120.107 E12.99154
G1 X105.077 Y120.638 E13.04985
G1 X100.943 Y121.232 E13.17909
G1 X99.057 Y121.232 E13.23744
G1 X94.923 Y120.638 E13.36665
G1 X93.115 Y120.107 E13.42496
G1 X89.314 Y118.372 E13.55425
G1 X87.727 Y117.352 E13.61261
G1 X84.572 Y114.617 E13.74180
G1 X83.337 Y113.193 E13.80013
G1 X81.078 Y109.677 E13.92944
G1 X80.294 Y107.962 E13.98779
G1 X79.118 Y103.956 E14.11696
G1 X78.850 Y102.090 E14.17530
G1 X78.850 Y97.910 E14.30461
G1 X79.118 Y96.044 E14.36295
G1 X80.294 Y92.038 E14.49214
G1 X81.078 Y90.323 E14.55049
G1 X83.337 Y86.807 E14.67979
G1 X84.513 Y85.451 E14.73532
G1 E12.73532 F2400.00000
G92 E0
G1 X107.421 Y108.813 F7800.000
G1 E2.00000 F2400.00000
G1 F300
G1 X103.948 Y110.825 E2.12418
G1 X100.001 Y111.523 E2.24820
G1 X96.194 Y110.855 E2.36779
G1 X95.866 Y110.719 E2.37878
G1 X92.579 Y108.813 E2.49635
G1 X90.027 Y105.773 E2.61917
G1 X88.654 Y102.008 E2.74317
G1 X88.654 Y97.992 E2.86741
G1 X90.027 Y94.227 E2.99142
G1 X92.579 Y91.187 E3.11424
G1 X96.037 Y89.184 E3.23788
G1 X99.999 Y88.477 E3.36243
G1 X103.909 Y89.163 E3.48523
G1 X107.389 Y91.160 E3.60938
G1 X109.972 Y94.226 E3.73343
G1 X111.346 Y97.992 E3.85749
G1 X111.346 Y102.008 E3.98173
G1 X109.973 Y105.773 E4.10573
G1 X107.479 Y108.745 E4.22577
G1 X107.013 Y108.328 F7800.000
G1 F300
G1 X103.730 Y110.229 E4.34314
G1 X100.001 Y110.889 E4.46034
G1 X96.370 Y110.251 E4.57439
G1 X96.144 Y110.158 E4.58197
G1 X92.987 Y108.328 E4.69487
G1 X90.577 Y105.455 E4.81089
G1 X89.278 Y101.897 E4.92808
G1 X89.278 Y98.103 E5.04549
G1 X90.577 Y94.545 E5.16267
G1 X92.987 Y91.672 E5.27870
G1 X96.260 Y89.776 E5.39574
G1 X100.000 Y89.111 E5.51325
G1 X103.693 Y89.760 E5.62927
G1 X106.982 Y91.647 E5.74661
G1 X109.423 Y94.544 E5.86382
G1 X110.722 Y98.103 E5.98104
G1 X110.722 Y101.897 E6.09845
G1 X109.423 Y105.455 E6.21563
G1 X107.071 Y108.259 E6.32888
G1 X106.605 Y107.842 F7800.000
G1 F300
G1 X103.513 Y109.633 E6.43943
G1 X100.000 Y110.254 E6.54980
G1 X96.546 Y109.648 E6.65832
G1 X96.421 Y109.596 E6.66250
G1 X93.395 Y107.842 E6.77072
G1 X91.126 Y105.138 E6.87995
G1 X89.903 Y101.787 E6.99031
G1 X89.903 Y98.213 E7.10089
G1 X91.126 Y94.862 E7.21125
G1 X93.395 Y92.158 E7.32049
G1 X96.484 Y90.369 E7.43092
G1 X100.000 Y89.746 E7.54141
G1 X103.477 Y90.356 E7.65063
G1 X106.575 Y92.134 E7.76117
G1 X108.874 Y94.862 E7.87154
G1 X110.097 Y98.213 E7.98192
G1 X110.097 Y101.787 E8.09249
G1 X108.874 Y105.138 E8.20286
G1 X106.663 Y107.773 E8.30931
G1 X106.605 Y107.842 F7800.000
G1 E6.30931 F2400.00000
G92 E0
G1 X108.356 Y109.863 F7800.000
G1 E2.00000 F2400.00000
G1 F300
G1 X107.060 Y110.986 E2.05304
G1 X103.678 Y112.530 E2.16808
G1 X100.000 Y113.059 E2.28306
G1 X96.322 Y112.530 E2.39804
G1 X92.940 Y110.986 E2.51308
G1 X90.132 Y108.552 E2.62804
G1 X88.121 Y105.424 E2.74311
G1 X87.075 Y101.860 E2.85805
G1 X87.075 Y98.140 E2.97313
G1 X88.121 Y94.576 E3.08807
G1 X90.132 Y91.448 E3.20313
G1 X92.940 Y89.014 E3.31809
G1 X96.322 Y87.470 E3.43313
G1 X100.000 Y86.941 E3.54811
G1 X103.678 Y87.470 E3.66310
G1 X107.060 Y89.014 E3.77813
G1 X109.868 Y91.448 E3.89309
G1 X111.879 Y94.576 E4.00816
G1 X112.925 Y98.140 E4.12310
G1 X112.925 Y101.860 E4.23818
G1 X111.879 Y105.424 E4.35312
G1 X109.868 Y108.552 E4.46818
G1 X108.424 Y109.804 E4.52732
G1 X108.765 Y110.335 F7800.000
G1 F300
G1 X107.402 Y111.517 E4.58314
G1 X103.856 Y113.135 E4.70374
G1 X100.000 Y113.690 E4.82428
G1 X96.144 Y113.135 E4.94482
G1 X92.598 Y111.517 E5.06542
G1 X89.655 Y108.966 E5.18594
G1 X87.547 Y105.686 E5.30657
G1 X86.450 Y101.949 E5.42707
G1 X86.450 Y98.051 E5.54770
G1 X87.547 Y94.314 E5.66820
G1 X89.655 Y91.034 E5.78883
G1 X92.598 Y88.483 E5.90935
G1 X96.144 Y86.865 E6.02995
G1 X100.000 Y86.310 E6.15049
G1 X103.856 Y86.865 E6.27103
G1 X107.402 Y88.483 E6.39163
G1 X110.345 Y91.034 E6.51215
G1 X112.453 Y94.314 E6.63278
G1 X113.550 Y98.051 E6.75328
G1 X113.550 Y101.949 E6.87391
G1 X112.453 Y105.686 E6.99441
G1 X110.345 Y108.966 E7.11504
G1 X108.833 Y110.276 E7.17695
G1 X109.174 Y110.807 F7800.000
G1 F300
G1 X107.743 Y112.048 E7.23556
G1 X104.034 Y113.741 E7.36172
G1 X100.000 Y114.321 E7.48782
G1 X95.966 Y113.741 E7.61392
G1 X92.257 Y112.048 E7.74007
G1 X89.178 Y109.379 E7.86616
G1 X86.973 Y105.948 E7.99234
G1 X85.825 Y102.039 E8.11840
G1 X85.825 Y97.961 E8.24460
G1 X86.973 Y94.052 E8.37066
G1 X89.178 Y90.621 E8.49684
G1 X92.257 Y87.952 E8.62293
G1 X95.966 Y86.259 E8.74908
G1 X100.000 Y85.679 E8.87518
G1 X104.034 Y86.259 E9.00129
G1 X107.743 Y87.952 E9.12744
G1 X110.822 Y90.621 E9.25352
G1 X113.027 Y94.052 E9.37971
G1 X114.175 Y97.961 E9.50577
G1 X114.175 Y102.039 E9.63197
G1 X113.027 Y105.948 E9.75803
G1 X110.822 Y109.379 E9.88421
G1 X109.242 Y110.748 E9.94891
G1 X108.596 Y110.647 F7800.000
G1 E7.94891 F2400.00000
G92 E0
G1 X109.147 Y108.383 F7800.000
G1 E2.00000 F2400.00000
G1 F300
G1 X109.634 Y107.895 E2.02559
G1 X111.542 Y104.927 E2.15660
G1 X110.361 Y106.109 E2.21863
G1 X110.847 Y104.776 E2.27128
G1 X111.211 Y104.896 E2.28551
G1 X111.056 Y105.413 E2.30555
G1 E0.30555 F2400.00000
G92 E0
G1 X105.180 Y111.289 F7800.000
G1 E2.00000 F2400.00000
G1 F300
G1 X106.506 Y109.963 E2.06962
G1 X104.409 Y111.178 E2.15962
G1 X104.193 Y111.216 E2.16777
G1 X103.247 Y112.162 E2.21745
G1 X103.188 Y111.794 E2.23129
G1 X103.707 Y111.702 E2.25086
G1 X102.844 Y111.837 F7800.000
G1 F300
G1 X100.079 Y112.280 E2.37466
G1 F300
G1 X99.924 Y112.281 E2.38098
G1 X98.800 Y112.101 E2.42734
G1 F300
G1 X96.553 Y111.742 E2.52752
G1 X96.206 Y111.635 E2.54352
G1 F300
G1 X95.944 Y111.548 E2.55486
G1 F300
G1 X95.518 Y111.361 E2.57267
G1 X94.983 Y111.084 E2.59569
G1 F300
G1 X94.448 Y110.808 E2.62050
G1 X93.561 Y110.936 F7800.000
G1 F300
G1 X94.048 Y110.450 E2.64317
G1 X94.225 Y110.106 E2.65594
G1 X93.734 Y109.822 E2.67464
G1 X92.942 Y110.614 E2.71159
G1 X92.437 Y110.177 E2.73359
G1 X93.138 Y109.476 E2.76628
G1 X92.542 Y109.131 E2.78899
G1 X91.933 Y109.740 E2.81740
G1 X91.429 Y109.303 E2.83940
G1 X92.077 Y108.655 E2.86963
G1 X91.647 Y108.143 E2.89166
G1 X90.924 Y108.866 E2.92537
G1 X90.420 Y108.429 E2.94737
G1 X91.218 Y107.631 E2.98457
G1 X90.788 Y107.119 E3.00660
G1 X90.037 Y107.870 E3.04163
G1 X89.668 Y107.297 E3.06409
G1 X90.359 Y106.607 E3.09626
G1 X89.929 Y106.095 E3.11829
G1 X89.300 Y106.724 E3.14761
G1 X88.932 Y106.151 E3.17007
G1 X89.591 Y105.491 E3.20082
G1 X89.339 Y104.801 E3.22502
G1 X88.563 Y105.577 E3.26121
G1 X88.452 Y105.405 E3.26797
G1 X88.303 Y104.896 E3.28545
G1 X88.789 Y104.410 E3.30811
G1 X88.533 Y104.000 F7800.000
G1 F300
G1 X88.238 Y103.104 E3.34838
G1 F300
G1 X87.910 Y102.063 E3.39097
G1 F300
G1 X87.864 Y101.746 E3.40490
G1 X87.864 Y98.254 E3.55691
G1 X87.887 Y98.096 E3.56388
G1 F300
G1 X87.944 Y97.792 E3.57592
G1 F300
G1 X88.533 Y96.000 E3.65646
G1 X88.667 Y95.710 F7800.000
G1 F300
G1 X89.153 Y95.223 E3.67941
G1 X89.701 Y93.723 E3.73273
G1 X88.651 Y94.773 E3.78229
G1 X90.366 Y92.105 E3.88813
G1 X90.853 Y91.617 E3.91114
G1 F300
G1 X93.524 Y89.303 E4.02909
G1 X94.054 Y89.061 E4.04853
G1 X94.159 Y89.264 E4.05618
G1 X93.239 Y90.184 E4.09961
G1 X94.455 Y89.189 F7800.000
G1 F300
G1 X95.684 Y88.554 E4.15358
G1 F300
G1 X95.725 Y88.570 E4.15512
G1 F300
G1 X95.834 Y88.620 E4.15890
G1 F300
G1 X96.010 Y88.705 E4.16427
G1 F300
G1 X96.186 Y88.789 E4.16881
G1 X97.113 Y88.169 F7800.000
G1 F300
G1 X100.000 Y87.710 E4.29234
G1 X101.195 Y87.898 E4.34348
G1 F300
G1 X103.447 Y88.258 E4.44785
G1 X103.607 Y88.307 E4.45553
G1 F300
G1 X103.928 Y88.407 E4.46948
G1 F300
G1 X104.220 Y88.510 E4.48104
G1 F300
G1 X105.529 Y89.183 E4.54200
G1 X106.417 Y89.054 F7800.000
G1 F300
G1 X105.930 Y89.540 E4.56474
G1 X105.754 Y89.884 E4.57752
G1 X106.247 Y90.167 E4.59633
G1 X107.042 Y89.372 E4.63350
G1 X107.548 Y89.810 E4.65563
G1 X106.847 Y90.511 E4.68839
G1 X107.447 Y90.855 E4.71125
G1 X108.054 Y90.249 E4.73961
G1 X108.560 Y90.687 E4.76174
G1 X107.909 Y91.338 E4.79219
G1 X108.340 Y91.851 E4.81434
G1 X109.066 Y91.126 E4.84825
G1 X109.572 Y91.564 E4.87038
G1 X108.772 Y92.363 E4.90775
G1 X109.204 Y92.876 E4.92990
G1 X109.958 Y92.122 E4.96515
G1 X110.327 Y92.697 E4.98774
G1 X109.636 Y93.388 E5.02008
G1 X110.067 Y93.901 E5.04223
G1 X110.697 Y93.271 E5.07165
G1 X111.066 Y93.846 E5.09424
G1 X110.407 Y94.505 E5.12504
G1 X110.660 Y95.197 E5.14939
G1 X111.436 Y94.421 E5.18566
G1 X111.548 Y94.595 E5.19251
G1 X111.697 Y95.104 E5.21003
G1 X111.211 Y95.590 E5.23276
G1 X111.467 Y96.000 F7800.000
G1 F300
G1 X111.762 Y96.896 E5.27303
G1 F300
G1 X112.090 Y97.937 E5.31562
G1 F300
G1 X112.136 Y98.254 E5.32955
G1 X112.136 Y101.746 E5.48156
G1 X112.113 Y101.904 E5.48853
G1 F300
G1 X112.056 Y102.208 E5.50057
G1 F300
G1 X111.467 Y104.000 E5.58111
M104 S200 ; set temperature
M140 S60 ; set bed temperature
G1 Z0.650 F7800.000
G1 X107.598 Y108.886 F7800.000
G1 F3600
G1 X107.327 Y109.108 E5.59510
G1 X104.030 Y111.007 E5.74733
G1 X100.004 Y111.723 E5.91088
G1 X96.204 Y111.062 E6.06517
G1 X95.688 Y110.849 E6.08750
G1 X92.672 Y109.107 E6.22681
G1 X92.322 Y108.820 E6.24489
G1 X89.958 Y106.001 E6.39208
G1 X89.744 Y105.601 E6.41022
G1 X88.458 Y102.047 E6.56140
G1 X88.458 Y97.953 E6.72517
G1 X89.744 Y94.399 E6.87635
G1 X89.958 Y93.999 E6.89449
G1 X92.322 Y91.179 E7.04169
G1 X92.673 Y90.892 E7.05981
G1 X95.953 Y89.003 E7.21121
G1 X99.998 Y88.277 E7.37559
G1 X103.796 Y88.938 E7.52982
G1 X104.312 Y89.151 E7.55215
G1 X107.328 Y90.893 E7.69146
G1 X107.678 Y91.180 E7.70954
G1 X110.042 Y93.999 E7.85673
G1 X110.256 Y94.399 E7.87487
G1 X111.542 Y97.953 E8.02605
G1 X111.542 Y102.047 E8.18983
G1 X110.256 Y105.601 E8.34100
G1 X110.042 Y106.001 E8.35915
G1 X107.667 Y108.829 E8.50686
G1 X107.000 Y108.158 F7800.000
G1 F3600
G1 X106.789 Y108.330 E8.51774
G1 X103.702 Y110.108 E8.66026
G1 X100.002 Y110.766 E8.81058
G1 X96.468 Y110.152 E8.95406
G1 X96.106 Y110.001 E8.96975
G1 X93.210 Y108.330 E9.10349
G1 X92.988 Y108.148 E9.11498
G1 X90.743 Y105.470 E9.25474
G1 X90.607 Y105.217 E9.26625
G1 X89.400 Y101.882 E9.40811
G1 X89.400 Y98.118 E9.55866
G1 X90.607 Y94.783 E9.70051
G1 X90.743 Y94.530 E9.71203
G1 X92.988 Y91.852 E9.85179
G1 X93.211 Y91.670 E9.86329
G1 X96.289 Y89.897 E10.00538
G1 X99.999 Y89.234 E10.15614
G1 X103.532 Y89.848 E10.29959
G1 X103.894 Y89.999 E10.31528
G1 X106.790 Y91.670 E10.44902
G1 X107.012 Y91.852 E10.46050
G1 X109.257 Y94.530 E10.60027
G1 X109.393 Y94.783 E10.61178
G1 X110.600 Y98.118 E10.75363
G1 X110.600 Y101.882 E10.90419
G1 X109.393 Y105.217 E11.04604
G1 X109.257 Y105.470 E11.05755
G1 X107.060 Y108.091 E11.19434
G1 X106.490 Y107.620 F7800.000
G1 F1800
G1 X106.368 Y107.720 E11.19793
G1 X103.445 Y109.403 E11.27459
G1 X100.001 Y110.016 E11.35413
G1 X96.675 Y109.438 E11.43085
G1 X96.433 Y109.337 E11.43681
G1 X93.632 Y107.720 E11.51034
G1 X93.510 Y107.620 E11.51392
G1 X91.358 Y105.054 E11.59004
G1 X91.284 Y104.915 E11.59363
G1 X90.140 Y101.752 E11.67009
G1 X90.140 Y98.248 E11.74976
G1 X91.284 Y95.085 E11.82622
G1 X91.358 Y94.946 E11.82981
G1 X93.510 Y92.380 E11.90593
G1 X93.632 Y92.280 E11.90952
G1 X96.552 Y90.598 E11.98611
G1 X100.000 Y89.984 E12.06572
G1 X103.325 Y90.562 E12.14244
G1 X103.567 Y90.663 E12.14840
G1 X106.368 Y92.280 E12.22193
G1 X106.490 Y92.380 E12.22551
G1 X108.642 Y94.946 E12.30163
G1 X108.716 Y95.085 E12.30522
G1 X109.860 Y98.248 E12.38168
G1 X109.860 Y101.752 E12.46135
G1 X108.716 Y104.915 E12.53781
G1 X108.642 Y105.054 E12.54140
G1 X106.548 Y107.551 E12.61547
G1 X106.490 Y107.620 F7800.000
G1 X108.361 Y109.779 F7800.000
G1 F3600
G1 X107.027 Y110.935 E12.68607
G1 X103.662 Y112.472 E12.83405
G1 X100.000 Y112.998 E12.98202
G1 X96.338 Y112.472 E13.12999
G1 X92.973 Y110.935 E13.27797
G1 X90.177 Y108.512 E13.42596
G1 X88.177 Y105.400 E13.57395
G1 X87.134 Y101.850 E13.72194
G1 X87.134 Y98.150 E13.86994
G1 X88.177 Y94.600 E14.01793
G1 X90.177 Y91.488 E14.16592
G1 X92.973 Y89.065 E14.31391
G1 X96.338 Y87.528 E14.46190
G1 X100.000 Y87.002 E14.60986
G1 X103.662 Y87.528 E14.75783
G1 X107.027 Y89.065 E14.90582
G1 X109.823 Y91.488 E15.05381
G1 X111.823 Y94.600 E15.20180
G1 X112.866 Y98.150 E15.34979
G1 X112.866 Y101.850 E15.49778
