; generated by Slic3r 1.3.0-dev on 2017-04-26 at 21:39:50

; external perimeters extrusion width = 0.60mm (2.67mm^3/s)
; perimeters extrusion width = 1.02mm (11.72mm^3/s)
; infill extrusion width = 1.46mm (22.62mm^3/s)
; solid infill extrusion width = 1.02mm (3.91mm^3/s)
; top infill extrusion width = 1.02mm (2.93mm^3/s)

M107
M190 S65 ; set bed temperature and wait for it to be reached
M104 S200 ; set temperature
G28 ; home all axes
G1 Z5 F5000 ; lift nozzle

; Filament gcode

M109 S200 ; set temperature and wait for it to be reached
G21 ; set units to millimeters
G90 ; use absolute coordinates
M82 ; use absolute distances for extrusion
G92 E0
G1 Z0.350 F7800.000
G1 E-2.00000 F2400.00000
G92 E0
G1 X72.922 Y72.225 F7800.000
G1 E2.00000 F2400.00000
G1 F300
G1 X73.665 Y71.520 E2.03169
G1 X74.988 Y70.346 E2.08642
G1 X75.921 Y69.589 E2.12360
G1 X76.734 Y68.962 E2.15536
G1 X78.201 Y67.910 E2.21123
G1 X79.188 Y67.266 E2.24766
G1 X80.060 Y66.728 E2.27938
G1 X81.667 Y65.812 E2.33662
G1 X83.586 Y64.854 E2.40298
G1 X85.321 Y64.091 E2.46164
G1 X87.300 Y63.348 E2.52703
G1 X88.664 Y62.899 E2.57147
G1 X90.140 Y62.485 E2.61889
G1 X91.134 Y62.237 E2.65060
G1 X92.589 Y61.920 E2.69668
G1 X94.058 Y61.669 E2.74278
G1 X95.071 Y61.525 E2.77443
G1 X96.583 Y61.357 E2.82153
G1 X98.023 Y61.262 E2.86616
G1 X99.051 Y61.222 E2.89800
G1 X100.657 Y61.212 E2.94769
G1 X102.250 Y61.275 E2.99701
G1 X103.417 Y61.357 E3.03320
G1 X105.153 Y61.552 E3.08726
G1 X106.185 Y61.705 E3.11955
G1 X107.410 Y61.920 E3.15804
G1 X109.135 Y62.300 E3.21267
G1 X110.055 Y62.535 E3.24206
G1 X111.336 Y62.899 E3.28326
G1 X112.526 Y63.286 E3.32199
G1 X113.326 Y63.571 E3.34828
G1 X115.133 Y64.279 E3.40830
G1 X116.295 Y64.796 E3.44766
G1 X116.970 Y65.120 E3.47085
G1 X118.768 Y66.048 E3.53343
G1 X120.440 Y67.034 E3.59349
G1 X122.204 Y68.188 E3.65871
G1 X123.227 Y68.932 E3.69787
G1 X124.115 Y69.616 E3.73254
G1 X125.388 Y70.667 E3.78362
G1 X126.682 Y71.848 E3.83782
G1 X127.972 Y73.119 E3.89386
G1 X129.131 Y74.387 E3.94701
G1 X129.799 Y75.167 E3.97877
G1 X130.608 Y76.164 E4.01852
G1 X131.613 Y77.521 E4.07075
G1 X132.195 Y78.363 E4.10242
G1 X132.931 Y79.493 E4.14416
G1 X133.760 Y80.898 E4.19463
G1 X134.254 Y81.798 E4.22640
G1 X134.879 Y83.016 E4.26875
G1 X135.548 Y84.477 E4.31848
G1 X135.946 Y85.420 E4.35014
G1 X136.628 Y87.220 E4.40970
G1 X137.257 Y89.201 E4.47402
G1 X137.755 Y91.084 E4.53428
G1 X138.171 Y93.096 E4.59786
G1 X138.479 Y95.078 E4.65992
G1 X138.678 Y97.063 E4.72163
G1 X138.769 Y98.602 E4.76933
G1 X138.790 Y99.734 E4.80437
G1 X138.782 Y100.906 E4.84062
G1 X138.702 Y102.656 E4.89482
G1 X138.614 Y103.692 E4.92700
G1 X138.479 Y104.922 E4.96528
G1 X138.217 Y106.662 E5.01973
G1 X138.037 Y107.610 E5.04959
G1 X137.755 Y108.916 E5.09093
G1 X137.314 Y110.607 E5.14502
G1 X136.902 Y111.958 E5.18870
G1 X136.628 Y112.780 E5.21552
G1 X136.007 Y114.433 E5.27016
G1 X135.491 Y115.658 E5.31128
G1 X134.879 Y116.984 E5.35647
G1 X134.310 Y118.099 E5.39520
G1 X133.707 Y119.197 E5.43396
G1 X132.931 Y120.507 E5.48105
G1 X131.879 Y122.097 E5.54006
G1 X130.909 Y123.444 E5.59141
G1 X129.821 Y124.807 E5.64539
G1 X129.110 Y125.637 E5.67919
G1 X128.311 Y126.523 E5.71612
G1 X127.078 Y127.775 E5.77049
G1 X126.335 Y128.480 E5.80218
G1 X125.012 Y129.654 E5.85691
G1 X124.079 Y130.411 E5.89409
G1 X123.266 Y131.038 E5.92584
G1 X121.799 Y132.090 E5.98172
G1 X120.812 Y132.734 E6.01815
G1 X119.940 Y133.272 E6.04987
G1 X118.333 Y134.188 E6.10710
G1 X116.414 Y135.146 E6.17347
G1 X114.679 Y135.909 E6.23213
G1 X112.700 Y136.652 E6.29752
G1 X111.336 Y137.101 E6.34195
G1 X109.860 Y137.515 E6.38938
G1 X108.866 Y137.763 E6.42109
G1 X107.411 Y138.080 E6.46717
G1 X105.942 Y138.331 E6.51327
G1 X104.929 Y138.475 E6.54492
G1 X103.416 Y138.643 E6.59201
G1 X101.977 Y138.738 E6.63665
G1 X100.949 Y138.778 E6.66849
G1 X99.343 Y138.788 E6.71818
G1 X97.750 Y138.725 E6.76749
G1 X96.584 Y138.643 E6.80369
G1 X94.847 Y138.447 E6.85775
G1 X93.815 Y138.295 E6.89004
G1 X92.590 Y138.080 E6.92853
G1 X90.865 Y137.700 E6.98316
G1 X89.945 Y137.465 E7.01255
G1 X88.664 Y137.101 E7.05375
G1 X87.474 Y136.714 E7.09248
G1 X86.674 Y136.429 E7.11877
G1 X84.867 Y135.721 E7.17878
G1 X83.705 Y135.204 E7.21815
G1 X83.030 Y134.880 E7.24133
G1 X81.232 Y133.952 E7.30392
G1 X79.560 Y132.966 E7.36398
G1 X77.796 Y131.812 E7.42920
G1 X76.773 Y131.068 E7.46836
G1 X75.885 Y130.384 E7.50302
G1 X74.612 Y129.333 E7.55410
G1 X73.318 Y128.152 E7.60830
G1 X72.028 Y126.881 E7.66435
G1 X70.869 Y125.613 E7.71749
G1 X70.201 Y124.833 E7.74926
G1 X69.392 Y123.836 E7.78900
G1 X68.387 Y122.479 E7.84124
G1 X67.805 Y121.637 E7.87291
G1 X67.069 Y120.507 E7.91465
G1 X66.240 Y119.102 E7.96512
G1 X65.746 Y118.202 E7.99688
G1 X65.121 Y116.984 E8.03924
G1 X64.452 Y115.523 E8.08897
G1 X64.054 Y114.580 E8.12063
G1 X63.372 Y112.780 E8.18018
G1 X62.743 Y110.799 E8.24450
G1 X62.246 Y108.916 E8.30476
G1 X61.829 Y106.903 E8.36835
G1 X61.521 Y104.922 E8.43041
G1 X61.322 Y102.937 E8.49212
G1 X61.231 Y101.398 E8.53982
G1 X61.210 Y100.266 E8.57485
G1 X61.218 Y99.094 E8.61111
G1 X61.298 Y97.344 E8.66531
G1 X61.386 Y96.308 E8.69748
G1 X61.521 Y95.078 E8.73577
G1 X61.783 Y93.338 E8.79021
G1 X61.963 Y92.390 E8.82008
G1 X62.245 Y91.084 E8.86141
G1 X62.686 Y89.393 E8.91550
G1 X63.098 Y88.042 E8.95919
G1 X63.372 Y87.220 E8.98601
G1 X63.993 Y85.567 E9.04065
G1 X64.509 Y84.342 E9.08176
G1 X65.121 Y83.016 E9.12695
G1 X65.690 Y81.901 E9.16569
G1 X66.293 Y80.803 E9.20444
G1 X67.069 Y79.493 E9.25154
G1 X68.121 Y77.903 E9.31054
G1 X69.091 Y76.556 E9.36189
G1 X70.179 Y75.193 E9.41587
G1 X70.890 Y74.363 E9.44968
G1 X71.689 Y73.477 E9.48661
G1 X72.858 Y72.289 E9.53819
G1 X73.352 Y72.678 F7800.000
G1 F300
G1 X74.095 Y71.973 E9.56988
G1 X75.394 Y70.821 E9.62359
G1 X76.303 Y70.083 E9.65981
G1 X77.115 Y69.457 E9.69156
G1 X78.555 Y68.424 E9.74638
G1 X79.516 Y67.798 E9.78187
G1 X80.388 Y67.259 E9.81359
G1 X81.965 Y66.361 E9.86973
G1 X83.858 Y65.416 E9.93520
G1 X85.560 Y64.668 E9.99274
G1 X87.513 Y63.935 E10.05726
G1 X88.842 Y63.498 E10.10054
G1 X90.291 Y63.091 E10.14713
G1 X91.286 Y62.843 E10.17884
G1 X92.703 Y62.535 E10.22373
G1 X94.146 Y62.288 E10.26903
G1 X95.159 Y62.143 E10.30068
G1 X96.633 Y61.980 E10.34655
G1 X98.048 Y61.887 E10.39043
G1 X99.076 Y61.846 E10.42227
G1 X100.640 Y61.837 E10.47067
G1 X102.218 Y61.899 E10.51953
G1 X103.367 Y61.980 E10.55518
G1 X105.071 Y62.172 E10.60824
G1 X106.091 Y62.323 E10.64012
G1 X107.297 Y62.535 E10.67801
G1 X108.989 Y62.908 E10.73162
G1 X109.898 Y63.140 E10.76067
G1 X111.158 Y63.498 E10.80120
G1 X112.318 Y63.875 E10.83893
G1 X113.109 Y64.157 E10.86493
G1 X114.894 Y64.856 E10.92421
G1 X116.025 Y65.360 E10.96255
G1 X116.695 Y65.682 E10.98554
G1 X118.470 Y66.597 E11.04732
G1 X120.109 Y67.564 E11.10622
G1 X121.850 Y68.703 E11.17057
G1 X122.847 Y69.428 E11.20872
G1 X123.732 Y70.110 E11.24331
G1 X124.982 Y71.142 E11.29346
G1 X126.252 Y72.302 E11.34665
G1 X127.519 Y73.549 E11.40167
G1 X128.656 Y74.793 E11.45383
G1 X129.324 Y75.573 E11.48560
G1 X130.112 Y76.545 E11.52432
G1 X131.099 Y77.877 E11.57559
G1 X131.681 Y78.718 E11.60726
G1 X132.398 Y79.819 E11.64792
G1 X133.212 Y81.199 E11.69748
G1 X133.707 Y82.099 E11.72925
G1 X134.315 Y83.285 E11.77050
G1 X134.972 Y84.720 E11.81934
G1 X135.370 Y85.663 E11.85100
G1 X136.038 Y87.428 E11.90941
G1 X136.659 Y89.384 E11.97288
G1 X137.147 Y91.230 E12.03198
G1 X137.558 Y93.217 E12.09473
G1 X137.859 Y95.160 E12.15558
G1 X138.056 Y97.119 E12.21652
G1 X138.144 Y98.619 E12.26298
G1 X138.165 Y99.734 E12.29751
G1 X138.157 Y100.889 E12.33325
G1 X138.079 Y102.606 E12.38644
G1 X137.993 Y103.629 E12.41818
G1 X137.859 Y104.840 E12.45589
G1 X137.602 Y106.548 E12.50933
G1 X137.424 Y107.484 E12.53881
G1 X137.147 Y108.770 E12.57950
G1 X136.715 Y110.430 E12.63258
G1 X136.306 Y111.771 E12.67596
G1 X136.038 Y112.572 E12.70208
G1 X135.430 Y114.194 E12.75571
G1 X134.916 Y115.411 E12.79658
G1 X134.315 Y116.715 E12.84099
G1 X133.761 Y117.801 E12.87872
G1 X133.161 Y118.894 E12.91730
G1 X132.399 Y120.180 E12.96357
G1 X131.366 Y121.740 E13.02144
G1 X130.413 Y123.063 E13.07188
G1 X129.346 Y124.402 E13.12487
G1 X128.636 Y125.230 E13.15861
G1 X127.857 Y126.093 E13.19459
G1 X126.648 Y127.322 E13.24794
G1 X125.905 Y128.027 E13.27963
G1 X124.606 Y129.179 E13.33334
G1 X123.697 Y129.917 E13.36956
G1 X122.885 Y130.543 E13.40131
G1 X121.445 Y131.576 E13.45613
G1 X120.484 Y132.202 E13.49162
G1 X119.612 Y132.741 E13.52334
G1 X118.035 Y133.639 E13.57949
G1 X116.142 Y134.584 E13.64495
G1 X114.440 Y135.332 E13.70249
G1 X112.487 Y136.065 E13.76701
G1 X111.158 Y136.502 E13.81029
G1 X109.709 Y136.909 E13.85688
G1 X108.714 Y137.157 E13.88860
G1 X107.297 Y137.465 E13.93348
G1 X105.854 Y137.712 E13.97878
G1 X104.841 Y137.857 E14.01043
G1 X103.367 Y138.020 E14.05630
G1 X101.952 Y138.113 E14.10018
G1 X100.924 Y138.154 E14.13202
G1 X99.360 Y138.163 E14.18042
G1 X97.782 Y138.101 E14.22928
G1 X96.633 Y138.020 E14.26493
G1 X94.929 Y137.828 E14.31799
G1 X93.909 Y137.677 E14.34987
G1 X92.703 Y137.465 E14.38776
G1 X91.011 Y137.092 E14.44137
G1 X90.102 Y136.860 E14.47042
G1 X88.842 Y136.502 E14.51095
G1 X87.682 Y136.125 E14.54868
G1 X86.891 Y135.843 E14.57468
G1 X85.107 Y135.144 E14.63396
G1 X83.975 Y134.640 E14.67230
G1 X83.305 Y134.319 E14.69529
G1 X81.530 Y133.403 E14.75708
G1 X79.891 Y132.436 E14.81598
G1 X78.150 Y131.297 E14.88032
G1 X77.153 Y130.572 E14.91847
G1 X76.268 Y129.890 E14.95306
G1 X75.018 Y128.858 E15.00321
G1 X73.748 Y127.698 E15.05640
G1 X72.481 Y126.451 E15.11142
G1 X71.344 Y125.207 E15.16358
G1 X70.676 Y124.427 E15.19535
G1 X69.888 Y123.455 E15.23407
G1 X68.901 Y122.123 E15.28534
G1 X68.319 Y121.282 E15.31701
G1 X67.602 Y120.180 E15.35767
G1 X66.788 Y118.801 E15.40723
G1 X66.293 Y117.901 E15.43899
G1 X65.685 Y116.715 E15.48025
G1 X65.028 Y115.280 E15.52909
G1 X64.630 Y114.337 E15.56075
G1 X63.962 Y112.572 E15.61916
G1 X63.341 Y110.616 E15.68264
G1 X62.853 Y108.770 E15.74173
G1 X62.442 Y106.783 E15.80448
G1 X62.141 Y104.840 E15.86533
G1 X61.944 Y102.881 E15.92627
G1 X61.856 Y101.381 E15.97273
G1 X61.835 Y100.266 E16.00726
G1 X61.843 Y99.111 E16.04300
G1 X61.921 Y97.394 E16.09619
G1 X62.007 Y96.372 E16.12792
G1 X62.141 Y95.160 E16.16564
G1 X62.398 Y93.452 E16.21908
G1 X62.576 Y92.516 E16.24856
G1 X62.853 Y91.230 E16.28925
G1 X63.285 Y89.570 E16.34234
G1 X63.694 Y88.229 E16.38572
G1 X63.962 Y87.428 E16.41184
G1 X64.570 Y85.806 E16.46546
G1 X65.084 Y84.589 E16.50633
G1 X65.685 Y83.285 E16.55074
G1 X66.239 Y82.199 E16.58848
G1 X66.839 Y81.106 E16.62705
G1 X67.602 Y79.820 E16.67332
G1 X68.634 Y78.260 E16.73119
G1 X69.587 Y76.937 E16.78164
G1 X70.654 Y75.598 E16.83462
G1 X71.364 Y74.770 E16.86837
G1 X72.143 Y73.907 E16.90434
G1 X73.289 Y72.742 E16.95490
G1 X73.783 Y73.131 F7800.000
G1 F300
G1 X74.525 Y72.426 E16.98659
G1 X75.799 Y71.296 E17.03928
G1 X76.684 Y70.578 E17.07454
G1 X77.497 Y69.952 E17.10629
G1 X78.909 Y68.939 E17.16006
G1 X79.845 Y68.330 E17.19460
G1 X80.717 Y67.791 E17.22632
G1 X82.263 Y66.910 E17.28138
G1 X84.131 Y65.979 E17.34596
G1 X85.800 Y65.245 E17.40236
G1 X87.726 Y64.523 E17.46601
G1 X89.019 Y64.097 E17.50815
G1 X90.443 Y63.698 E17.55390
G1 X91.437 Y63.449 E17.58562
G1 X92.817 Y63.149 E17.62931
G1 X94.235 Y62.906 E17.67380
G1 X95.247 Y62.762 E17.70546
G1 X96.682 Y62.603 E17.75011
G1 X98.072 Y62.511 E17.79323
G1 X99.100 Y62.471 E17.82506
G1 X100.623 Y62.461 E17.87218
G1 X102.186 Y62.523 E17.92059
G1 X103.318 Y62.603 E17.95570
G1 X104.990 Y62.792 E18.00775
G1 X105.996 Y62.941 E18.03922
G1 X107.183 Y63.149 E18.07650
G1 X108.363 Y63.400 E18.11383
G1 X109.227 Y63.611 E18.14136
G1 X110.981 Y64.097 E18.19767
G1 X112.110 Y64.464 E18.23439
G1 X112.892 Y64.743 E18.26011
G1 X114.654 Y65.433 E18.31866
G1 X115.756 Y65.924 E18.35598
G1 X116.420 Y66.243 E18.37876
G1 X118.172 Y67.146 E18.43974
G1 X119.203 Y67.741 E18.47657
G1 X120.230 Y68.376 E18.51394
G1 X121.496 Y69.218 E18.56097
G1 X122.466 Y69.924 E18.59810
G1 X123.350 Y70.605 E18.63262
G1 X124.577 Y71.617 E18.68185
G1 X125.822 Y72.755 E18.73403
G1 X127.065 Y73.979 E18.78802
G1 X128.182 Y75.200 E18.83920
G1 X128.849 Y75.979 E18.87096
G1 X129.617 Y76.926 E18.90865
G1 X130.585 Y78.232 E18.95897
G1 X131.167 Y79.074 E18.99064
G1 X131.865 Y80.146 E19.03022
G1 X132.665 Y81.500 E19.07887
G1 X133.159 Y82.400 E19.11063
G1 X133.751 Y83.554 E19.15079
G1 X134.397 Y84.963 E19.19874
G1 X134.794 Y85.906 E19.23040
G1 X135.449 Y87.637 E19.28766
G1 X136.061 Y89.566 E19.35029
G1 X136.539 Y91.377 E19.40822
G1 X136.944 Y93.337 E19.47015
G1 X137.240 Y95.241 E19.52979
G1 X137.434 Y97.176 E19.58994
G1 X137.519 Y98.635 E19.63517
G1 X137.540 Y99.734 E19.66918
G1 X137.532 Y100.873 E19.70441
G1 X137.456 Y102.557 E19.75659
G1 X137.371 Y103.565 E19.78789
G1 X137.240 Y104.759 E19.82505
G1 X136.988 Y106.434 E19.87747
G1 X136.812 Y107.358 E19.90657
G1 X136.539 Y108.623 E19.94662
G1 X136.116 Y110.252 E19.99869
G1 X135.709 Y111.584 E20.04176
G1 X135.449 Y112.363 E20.06719
G1 X134.853 Y113.955 E20.11979
G1 X134.342 Y115.165 E20.16042
G1 X133.751 Y116.445 E20.20406
G1 X133.212 Y117.503 E20.24079
G1 X132.615 Y118.591 E20.27918
G1 X131.866 Y119.854 E20.32463
G1 X130.853 Y121.383 E20.38136
G1 X129.918 Y122.682 E20.43090
G1 X128.870 Y123.996 E20.48288
G1 X128.162 Y124.823 E20.51658
G1 X127.404 Y125.663 E20.55159
G1 X126.217 Y126.869 E20.60393
G1 X125.475 Y127.574 E20.63562
G1 X124.201 Y128.704 E20.68831
G1 X123.316 Y129.422 E20.72356
G1 X122.503 Y130.048 E20.75532
G1 X121.091 Y131.061 E20.80909
G1 X120.155 Y131.670 E20.84363
G1 X119.283 Y132.209 E20.87535
G1 X117.737 Y133.090 E20.93041
G1 X115.869 Y134.021 E20.99498
G1 X114.200 Y134.755 E21.05139
G1 X112.274 Y135.477 E21.11504
G1 X110.981 Y135.903 E21.15717
G1 X109.557 Y136.302 E21.20293
G1 X108.563 Y136.551 E21.23464
G1 X107.183 Y136.851 E21.27834
G1 X105.765 Y137.094 E21.32283
G1 X104.753 Y137.238 E21.35448
G1 X103.318 Y137.397 E21.39914
G1 X101.928 Y137.489 E21.44225
G1 X100.900 Y137.529 E21.47409
G1 X99.377 Y137.539 E21.52121
G1 X97.814 Y137.477 E21.56961
G1 X96.682 Y137.397 E21.60472
G1 X95.010 Y137.208 E21.65677
G1 X94.004 Y137.059 E21.68824
G1 X92.817 Y136.851 E21.72553
G1 X91.637 Y136.600 E21.76286
G1 X90.773 Y136.389 E21.79038
G1 X89.019 Y135.903 E21.84669
G1 X87.890 Y135.536 E21.88342
G1 X87.108 Y135.257 E21.90913
G1 X85.346 Y134.567 E21.96768
G1 X84.244 Y134.076 E22.00500
G1 X83.580 Y133.757 E22.02778
G1 X81.828 Y132.854 E22.08877
G1 X80.797 Y132.259 E22.12559
G1 X79.770 Y131.624 E22.16297
G1 X78.504 Y130.782 E22.21000
G1 X77.534 Y130.076 E22.24713
G1 X76.650 Y129.395 E22.28165
G1 X75.423 Y128.383 E22.33087
G1 X74.178 Y127.245 E22.38305
G1 X72.935 Y126.021 E22.43705
G1 X71.818 Y124.800 E22.48823
G1 X71.151 Y124.021 E22.51999
G1 X70.383 Y123.075 E22.55768
G1 X69.415 Y121.768 E22.60800
G1 X68.833 Y120.926 E22.63967
G1 X68.134 Y119.854 E22.67925
G1 X67.335 Y118.500 E22.72789
G1 X66.841 Y117.600 E22.75966
G1 X66.249 Y116.445 E22.79982
G1 X65.603 Y115.037 E22.84776
G1 X65.206 Y114.094 E22.87942
G1 X64.551 Y112.363 E22.93668
G1 X63.939 Y110.434 E22.99932
G1 X63.461 Y108.624 E23.05724
G1 X63.056 Y106.663 E23.11917
G1 X62.760 Y104.759 E23.17881
G1 X62.566 Y102.824 E23.23897
G1 X62.481 Y101.365 E23.28420
G1 X62.460 Y100.266 E23.31821
G1 X62.468 Y99.127 E23.35344
G1 X62.544 Y97.443 E23.40562
G1 X62.629 Y96.435 E23.43692
G1 X62.760 Y95.241 E23.47407
G1 X63.012 Y93.566 E23.52649
G1 X63.188 Y92.642 E23.55560
G1 X63.461 Y91.377 E23.59564
G1 X63.884 Y89.748 E23.64772
G1 X64.291 Y88.416 E23.69079
G1 X64.551 Y87.637 E23.71622
G1 X65.147 Y86.045 E23.76882
G1 X65.658 Y84.835 E23.80945
G1 X66.249 Y83.555 E23.85309
G1 X66.788 Y82.497 E23.88981
G1 X67.385 Y81.409 E23.92820
G1 X68.134 Y80.146 E23.97366
G1 X69.147 Y78.617 E24.03039
G1 X70.082 Y77.318 E24.07993
G1 X71.129 Y76.004 E24.13191
G1 X71.838 Y75.177 E24.16561
G1 X72.596 Y74.337 E24.20062
G1 X73.719 Y73.195 E24.25017
G1 X74.213 Y73.584 F7800.000
G1 F300
G1 X74.956 Y72.879 E24.28186
G1 X76.205 Y71.772 E24.33353
G1 X77.066 Y71.073 E24.36782
G1 X77.878 Y70.447 E24.39958
G1 X79.263 Y69.454 E24.45229
G1 X80.173 Y68.861 E24.48589
G1 X81.045 Y68.322 E24.51761
G1 X82.561 Y67.459 E24.57158
G1 X84.403 Y66.541 E24.63526
G1 X86.039 Y65.823 E24.69054
